(G-CODE GENERATED BY FLATCAM v8.994 - www.flatcam.org - Version Date: 2020/11/7)

(Name: DIAPLAY  7 SEG x 4-B_Cu.gbr_iso_combined_cnc)
(Type: G-code from Geometry)
(Units: MM)

(Created on Monday, 26 June 2023 at 17:26)

(This preprocessor is the default preprocessor used by FlatCAM.)
(It is made to work with MACH3 compatible motion controllers.)

(TOOL DIAMETER: 0.2 mm)
(Feedrate_XY: 70.0 mm/min)
(Feedrate_Z: 60.0 mm/min)
(Feedrate rapids 1500.0 mm/min)

(Z_Cut: 0.0 mm)
(Z_Move: 5.0 mm)
(Z Start: None mm)
(Z End: 15.0 mm)
(X,Y End: None mm)
(Steps per circle: 64)
(Preprocessor Geometry: default)

(X range:    4.0500 ...   49.6500  mm)
(Y range:    2.6498 ...   46.4702  mm)

(Spindle Speed: 6000.0 RPM)
G21
G90
G94

G01 F70.00

M5
G00 Z15.0000
G00 X0.0000 Y0.0000
T2
M6    
(MSG, Change to Tool Dia = 0.2000)
M0
G00 Z15.0000

M03 S6000.0
G01 F70.00
G00 X5.0049 Y7.4099
G01 F60.00
G01 Z0.0000
G01 F70.00
G01 X4.9951 Y7.4099
G01 X4.9069 Y7.4054
G01 X4.8147 Y7.3917
G01 X4.7242 Y7.3691
G01 X4.6365 Y7.3377
G01 X4.5522 Y7.2978
G01 X4.4722 Y7.2499
G01 X4.3973 Y7.1944
G01 X4.3282 Y7.1318
G01 X4.2656 Y7.0627
G01 X4.2101 Y6.9878
G01 X4.1622 Y6.9078
G01 X4.1223 Y6.8235
G01 X4.0909 Y6.7358
G01 X4.0683 Y6.6453
G01 X4.0546 Y6.5531
G01 X4.0500 Y6.4600
G01 X4.0546 Y6.3669
G01 X4.0683 Y6.2747
G01 X4.0909 Y6.1842
G01 X4.1223 Y6.0965
G01 X4.1622 Y6.0122
G01 X4.2101 Y5.9322
G01 X4.2656 Y5.8573
G01 X4.3282 Y5.7882
G01 X4.3973 Y5.7256
G01 X4.4722 Y5.6701
G01 X4.5522 Y5.6222
G01 X4.6365 Y5.5823
G01 X4.7242 Y5.5509
G01 X4.8147 Y5.5283
G01 X4.9069 Y5.5146
G01 X5.0000 Y5.5100
G01 X5.0931 Y5.5146
G01 X5.1853 Y5.5283
G01 X5.2758 Y5.5509
G01 X5.3635 Y5.5823
G01 X5.4478 Y5.6222
G01 X5.5278 Y5.6701
G01 X5.6027 Y5.7256
G01 X5.6718 Y5.7882
G01 X5.7344 Y5.8573
G01 X5.7899 Y5.9322
G01 X5.8378 Y6.0122
G01 X5.8777 Y6.0965
G01 X5.9091 Y6.1842
G01 X5.9317 Y6.2747
G01 X5.9454 Y6.3669
G01 X5.9500 Y6.4600
G01 X5.9454 Y6.5531
G01 X5.9317 Y6.6453
G01 X5.9091 Y6.7358
G01 X5.8777 Y6.8235
G01 X5.8378 Y6.9078
G01 X5.7899 Y6.9878
G01 X5.7344 Y7.0627
G01 X5.6718 Y7.1318
G01 X5.6027 Y7.1944
G01 X5.5278 Y7.2499
G01 X5.4478 Y7.2978
G01 X5.3635 Y7.3377
G01 X5.2758 Y7.3691
G01 X5.1853 Y7.3917
G01 X5.0931 Y7.4054
G01 X5.0049 Y7.4099
G00 Z5.0000
G00 X7.5449 Y7.4099
G01 F60.00
G01 Z0.0000
G01 F70.00
G01 X7.5351 Y7.4099
G01 X7.4469 Y7.4054
G01 X7.3547 Y7.3917
G01 X7.2642 Y7.3691
G01 X7.1765 Y7.3377
G01 X7.0922 Y7.2978
G01 X7.0122 Y7.2499
G01 X6.9373 Y7.1944
G01 X6.8682 Y7.1318
G01 X6.8056 Y7.0627
G01 X6.7501 Y6.9878
G01 X6.7022 Y6.9078
G01 X6.6623 Y6.8235
G01 X6.6309 Y6.7358
G01 X6.6083 Y6.6453
G01 X6.5946 Y6.5531
G01 X6.5900 Y6.4600
G01 X6.5946 Y6.3669
G01 X6.6083 Y6.2747
G01 X6.6309 Y6.1842
G01 X6.6623 Y6.0965
G01 X6.7022 Y6.0122
G01 X6.7501 Y5.9322
G01 X6.8056 Y5.8573
G01 X6.8682 Y5.7882
G01 X6.9373 Y5.7256
G01 X7.0122 Y5.6701
G01 X7.0922 Y5.6222
G01 X7.1765 Y5.5823
G01 X7.2642 Y5.5509
G01 X7.3547 Y5.5283
G01 X7.4469 Y5.5146
G01 X7.5400 Y5.5100
G01 X7.6331 Y5.5146
G01 X7.7253 Y5.5283
G01 X7.8158 Y5.5509
G01 X7.9035 Y5.5823
G01 X7.9878 Y5.6222
G01 X8.0678 Y5.6701
G01 X8.1427 Y5.7256
G01 X8.2118 Y5.7882
G01 X8.2744 Y5.8573
G01 X8.3299 Y5.9322
G01 X8.3778 Y6.0122
G01 X8.4177 Y6.0965
G01 X8.4491 Y6.1842
G01 X8.4717 Y6.2747
G01 X8.4854 Y6.3669
G01 X8.4900 Y6.4600
G01 X8.4854 Y6.5531
G01 X8.4717 Y6.6453
G01 X8.4491 Y6.7358
G01 X8.4177 Y6.8235
G01 X8.3778 Y6.9078
G01 X8.3299 Y6.9878
G01 X8.2744 Y7.0627
G01 X8.2118 Y7.1318
G01 X8.1427 Y7.1944
G01 X8.0678 Y7.2499
G01 X7.9878 Y7.2978
G01 X7.9035 Y7.3377
G01 X7.8158 Y7.3691
G01 X7.7253 Y7.3917
G01 X7.6331 Y7.4054
G01 X7.5449 Y7.4099
G00 Z5.0000
G00 X7.5449 Y9.9499
G01 F60.00
G01 Z0.0000
G01 F70.00
G01 X7.5351 Y9.9499
G01 X7.4469 Y9.9454
G01 X7.3547 Y9.9317
G01 X7.2642 Y9.9091
G01 X7.1765 Y9.8777
G01 X7.0922 Y9.8378
G01 X7.0122 Y9.7899
G01 X6.9373 Y9.7344
G01 X6.8682 Y9.6718
G01 X6.8056 Y9.6027
G01 X6.7501 Y9.5278
G01 X6.7022 Y9.4478
G01 X6.6623 Y9.3635
G01 X6.6309 Y9.2758
G01 X6.6083 Y9.1853
G01 X6.5946 Y9.0931
G01 X6.5900 Y9.0000
G01 X6.5946 Y8.9069
G01 X6.6083 Y8.8147
G01 X6.6309 Y8.7242
G01 X6.6623 Y8.6365
G01 X6.7022 Y8.5522
G01 X6.7501 Y8.4722
G01 X6.8056 Y8.3973
G01 X6.8682 Y8.3282
G01 X6.9373 Y8.2656
G01 X7.0122 Y8.2101
G01 X7.0922 Y8.1622
G01 X7.1765 Y8.1223
G01 X7.2642 Y8.0909
G01 X7.3547 Y8.0683
G01 X7.4469 Y8.0546
G01 X7.5400 Y8.0500
G01 X7.6331 Y8.0546
G01 X7.7253 Y8.0683
G01 X7.8158 Y8.0909
G01 X7.9035 Y8.1223
G01 X7.9878 Y8.1622
G01 X8.0678 Y8.2101
G01 X8.1427 Y8.2656
G01 X8.2118 Y8.3282
G01 X8.2744 Y8.3973
G01 X8.3299 Y8.4722
G01 X8.3778 Y8.5522
G01 X8.4177 Y8.6365
G01 X8.4491 Y8.7242
G01 X8.4717 Y8.8147
G01 X8.4854 Y8.9069
G01 X8.4900 Y9.0000
G01 X8.4854 Y9.0931
G01 X8.4717 Y9.1853
G01 X8.4491 Y9.2758
G01 X8.4177 Y9.3635
G01 X8.3778 Y9.4478
G01 X8.3299 Y9.5278
G01 X8.2744 Y9.6027
G01 X8.2118 Y9.6718
G01 X8.1427 Y9.7344
G01 X8.0678 Y9.7899
G01 X7.9878 Y9.8378
G01 X7.9035 Y9.8777
G01 X7.8158 Y9.9091
G01 X7.7253 Y9.9317
G01 X7.6331 Y9.9454
G01 X7.5449 Y9.9499
G00 Z5.0000
G00 X10.0849 Y9.9499
G01 F60.00
G01 Z0.0000
G01 F70.00
G01 X10.0751 Y9.9499
G01 X9.9869 Y9.9454
G01 X9.8947 Y9.9317
G01 X9.8042 Y9.9091
G01 X9.7165 Y9.8777
G01 X9.6322 Y9.8378
G01 X9.5522 Y9.7899
G01 X9.4773 Y9.7344
G01 X9.4082 Y9.6718
G01 X9.3456 Y9.6027
G01 X9.2901 Y9.5278
G01 X9.2422 Y9.4478
G01 X9.2023 Y9.3635
G01 X9.1709 Y9.2758
G01 X9.1483 Y9.1853
G01 X9.1346 Y9.0931
G01 X9.1300 Y9.0000
G01 X9.1346 Y8.9069
G01 X9.1483 Y8.8147
G01 X9.1709 Y8.7242
G01 X9.2023 Y8.6365
G01 X9.2422 Y8.5522
G01 X9.2901 Y8.4722
G01 X9.3456 Y8.3973
G01 X9.4082 Y8.3282
G01 X9.4773 Y8.2656
G01 X9.5522 Y8.2101
G01 X9.6322 Y8.1622
G01 X9.7165 Y8.1223
G01 X9.8042 Y8.0909
G01 X9.8947 Y8.0683
G01 X9.9869 Y8.0546
G01 X10.0800 Y8.0500
G01 X10.1731 Y8.0546
G01 X10.2653 Y8.0683
G01 X10.3558 Y8.0909
G01 X10.4435 Y8.1223
G01 X10.5278 Y8.1622
G01 X10.6078 Y8.2101
G01 X10.6827 Y8.2656
G01 X10.7518 Y8.3282
G01 X10.8144 Y8.3973
G01 X10.8699 Y8.4722
G01 X10.9178 Y8.5522
G01 X10.9577 Y8.6365
G01 X10.9891 Y8.7242
G01 X11.0117 Y8.8147
G01 X11.0254 Y8.9069
G01 X11.0300 Y9.0000
G01 X11.0254 Y9.0931
G01 X11.0117 Y9.1853
G01 X10.9891 Y9.2758
G01 X10.9577 Y9.3635
G01 X10.9178 Y9.4478
G01 X10.8699 Y9.5278
G01 X10.8144 Y9.6027
G01 X10.7518 Y9.6718
G01 X10.6827 Y9.7344
G01 X10.6078 Y9.7899
G01 X10.5278 Y9.8378
G01 X10.4435 Y9.8777
G01 X10.3558 Y9.9091
G01 X10.2653 Y9.9317
G01 X10.1731 Y9.9454
G01 X10.0849 Y9.9499
G00 Z5.0000
G00 X10.0849 Y7.4099
G01 F60.00
G01 Z0.0000
G01 F70.00
G01 X10.0751 Y7.4099
G01 X9.9869 Y7.4054
G01 X9.8947 Y7.3917
G01 X9.8042 Y7.3691
G01 X9.7165 Y7.3377
G01 X9.6322 Y7.2978
G01 X9.5522 Y7.2499
G01 X9.4773 Y7.1944
G01 X9.4082 Y7.1318
G01 X9.3456 Y7.0627
G01 X9.2901 Y6.9878
G01 X9.2422 Y6.9078
G01 X9.2023 Y6.8235
G01 X9.1709 Y6.7358
G01 X9.1483 Y6.6453
G01 X9.1346 Y6.5531
G01 X9.1300 Y6.4600
G01 X9.1346 Y6.3669
G01 X9.1483 Y6.2747
G01 X9.1709 Y6.1842
G01 X9.2023 Y6.0965
G01 X9.2422 Y6.0122
G01 X9.2901 Y5.9322
G01 X9.3456 Y5.8573
G01 X9.4082 Y5.7882
G01 X9.4773 Y5.7256
G01 X9.5522 Y5.6701
G01 X9.6322 Y5.6222
G01 X9.7165 Y5.5823
G01 X9.8042 Y5.5509
G01 X9.8947 Y5.5283
G01 X9.9869 Y5.5146
G01 X10.0800 Y5.5100
G01 X10.1731 Y5.5146
G01 X10.2653 Y5.5283
G01 X10.3558 Y5.5509
G01 X10.4435 Y5.5823
G01 X10.5278 Y5.6222
G01 X10.6078 Y5.6701
G01 X10.6827 Y5.7256
G01 X10.7518 Y5.7882
G01 X10.8144 Y5.8573
G01 X10.8699 Y5.9322
G01 X10.9178 Y6.0122
G01 X10.9577 Y6.0965
G01 X10.9891 Y6.1842
G01 X11.0117 Y6.2747
G01 X11.0254 Y6.3669
G01 X11.0300 Y6.4600
G01 X11.0254 Y6.5531
G01 X11.0117 Y6.6453
G01 X10.9891 Y6.7358
G01 X10.9577 Y6.8235
G01 X10.9178 Y6.9078
G01 X10.8699 Y6.9878
G01 X10.8144 Y7.0627
G01 X10.7518 Y7.1318
G01 X10.6827 Y7.1944
G01 X10.6078 Y7.2499
G01 X10.5278 Y7.2978
G01 X10.4435 Y7.3377
G01 X10.3558 Y7.3691
G01 X10.2653 Y7.3917
G01 X10.1731 Y7.4054
G01 X10.0849 Y7.4099
G00 Z5.0000
G00 X12.6249 Y7.4099
G01 F60.00
G01 Z0.0000
G01 F70.00
G01 X12.6151 Y7.4099
G01 X12.5269 Y7.4054
G01 X12.4347 Y7.3917
G01 X12.3442 Y7.3691
G01 X12.2565 Y7.3377
G01 X12.1722 Y7.2978
G01 X12.0922 Y7.2499
G01 X12.0173 Y7.1944
G01 X11.9482 Y7.1318
G01 X11.8856 Y7.0627
G01 X11.8301 Y6.9878
G01 X11.7822 Y6.9078
G01 X11.7423 Y6.8235
G01 X11.7109 Y6.7358
G01 X11.6883 Y6.6453
G01 X11.6746 Y6.5531
G01 X11.6700 Y6.4600
G01 X11.6746 Y6.3669
G01 X11.6883 Y6.2747
G01 X11.7109 Y6.1842
G01 X11.7423 Y6.0965
G01 X11.7822 Y6.0122
G01 X11.8301 Y5.9322
G01 X11.8856 Y5.8573
G01 X11.9482 Y5.7882
G01 X12.0173 Y5.7256
G01 X12.0922 Y5.6701
G01 X12.1722 Y5.6222
G01 X12.2565 Y5.5823
G01 X12.3442 Y5.5509
G01 X12.4347 Y5.5283
G01 X12.5269 Y5.5146
G01 X12.6200 Y5.5100
G01 X12.7131 Y5.5146
G01 X12.8053 Y5.5283
G01 X12.8958 Y5.5509
G01 X12.9835 Y5.5823
G01 X13.0678 Y5.6222
G01 X13.1478 Y5.6701
G01 X13.2227 Y5.7256
G01 X13.2918 Y5.7882
G01 X13.3544 Y5.8573
G01 X13.4099 Y5.9322
G01 X13.4578 Y6.0122
G01 X13.4977 Y6.0965
G01 X13.5291 Y6.1842
G01 X13.5517 Y6.2747
G01 X13.5654 Y6.3669
G01 X13.5700 Y6.4600
G01 X13.5654 Y6.5531
G01 X13.5517 Y6.6453
G01 X13.5291 Y6.7358
G01 X13.4977 Y6.8235
G01 X13.4578 Y6.9078
G01 X13.4099 Y6.9878
G01 X13.3544 Y7.0627
G01 X13.2918 Y7.1318
G01 X13.2227 Y7.1944
G01 X13.1478 Y7.2499
G01 X13.0678 Y7.2978
G01 X12.9835 Y7.3377
G01 X12.8958 Y7.3691
G01 X12.8053 Y7.3917
G01 X12.7131 Y7.4054
G01 X12.6249 Y7.4099
G00 Z5.0000
G00 X12.6249 Y9.9499
G01 F60.00
G01 Z0.0000
G01 F70.00
G01 X12.6151 Y9.9499
G01 X12.5269 Y9.9454
G01 X12.4347 Y9.9317
G01 X12.3442 Y9.9091
G01 X12.2565 Y9.8777
G01 X12.1722 Y9.8378
G01 X12.0922 Y9.7899
G01 X12.0173 Y9.7344
G01 X11.9482 Y9.6718
G01 X11.8856 Y9.6027
G01 X11.8301 Y9.5278
G01 X11.7822 Y9.4478
G01 X11.7423 Y9.3635
G01 X11.7109 Y9.2758
G01 X11.6883 Y9.1853
G01 X11.6746 Y9.0931
G01 X11.6700 Y9.0000
G01 X11.6746 Y8.9069
G01 X11.6883 Y8.8147
G01 X11.7109 Y8.7242
G01 X11.7423 Y8.6365
G01 X11.7822 Y8.5522
G01 X11.8301 Y8.4722
G01 X11.8856 Y8.3973
G01 X11.9482 Y8.3282
G01 X12.0173 Y8.2656
G01 X12.0922 Y8.2101
G01 X12.1722 Y8.1622
G01 X12.2565 Y8.1223
G01 X12.3442 Y8.0909
G01 X12.4347 Y8.0683
G01 X12.5269 Y8.0546
G01 X12.6200 Y8.0500
G01 X12.7131 Y8.0546
G01 X12.8053 Y8.0683
G01 X12.8958 Y8.0909
G01 X12.9835 Y8.1223
G01 X13.0678 Y8.1622
G01 X13.1478 Y8.2101
G01 X13.2227 Y8.2656
G01 X13.2918 Y8.3282
G01 X13.3544 Y8.3973
G01 X13.4099 Y8.4722
G01 X13.4578 Y8.5522
G01 X13.4977 Y8.6365
G01 X13.5291 Y8.7242
G01 X13.5517 Y8.8147
G01 X13.5654 Y8.9069
G01 X13.5700 Y9.0000
G01 X13.5654 Y9.0931
G01 X13.5517 Y9.1853
G01 X13.5291 Y9.2758
G01 X13.4977 Y9.3635
G01 X13.4578 Y9.4478
G01 X13.4099 Y9.5278
G01 X13.3544 Y9.6027
G01 X13.2918 Y9.6718
G01 X13.2227 Y9.7344
G01 X13.1478 Y9.7899
G01 X13.0678 Y9.8378
G01 X12.9835 Y9.8777
G01 X12.8958 Y9.9091
G01 X12.8053 Y9.9317
G01 X12.7131 Y9.9454
G01 X12.6249 Y9.9499
G00 Z5.0000
G00 X14.6598 Y5.6534
G01 F60.00
G01 Z0.0000
G01 F70.00
G01 X14.6599 Y4.6451
G01 X14.6618 Y4.6059
G01 X14.6628 Y4.5961
G01 X14.6694 Y4.5524
G01 X14.6800 Y4.5095
G01 X14.6829 Y4.5001
G01 X14.6979 Y4.4586
G01 X14.7200 Y4.4121
G01 X14.7441 Y4.3721
G01 X14.7703 Y4.3365
G01 X14.7765 Y4.3290
G01 X14.8046 Y4.2981
G01 X15.7999 Y3.3029
G01 X15.8327 Y3.2733
G01 X15.8721 Y3.2441
G01 X15.9142 Y3.2189
G01 X15.9541 Y3.1999
G01 X15.9632 Y3.1961
G01 X16.0001 Y3.1829
G01 X16.0095 Y3.1800
G01 X16.0524 Y3.1694
G01 X16.0985 Y3.1625
G01 X16.1500 Y3.1598
G01 X20.2600 Y3.1598
G01 X20.3041 Y3.1618
G01 X20.3139 Y3.1628
G01 X20.3576 Y3.1694
G01 X20.4028 Y3.1807
G01 X20.4514 Y3.1979
G01 X20.4914 Y3.2167
G01 X20.5001 Y3.2213
G01 X20.5379 Y3.2441
G01 X20.5735 Y3.2703
G01 X20.5810 Y3.2765
G01 X20.6119 Y3.3046
G01 X21.8154 Y4.5081
G01 X21.8467 Y4.5427
G01 X21.8731 Y4.5781
G01 X21.8785 Y4.5863
G01 X21.8987 Y4.6199
G01 X21.9033 Y4.6286
G01 X21.9221 Y4.6686
G01 X21.9387 Y4.7148
G01 X21.9506 Y4.7624
G01 X21.9575 Y4.8085
G01 X21.9602 Y4.8600
G01 X21.9602 Y18.2900
G01 X21.9578 Y18.3390
G01 X21.9514 Y18.3827
G01 X21.9495 Y18.3924
G01 X21.9387 Y18.4352
G01 X21.9239 Y18.4768
G01 X21.9201 Y18.4859
G01 X21.9011 Y18.5258
G01 X21.8759 Y18.5679
G01 X21.8497 Y18.6035
G01 X21.8435 Y18.6110
G01 X21.8137 Y18.6437
G01 X16.4202 Y24.0372
G01 X16.4202 Y28.0513
G01 X16.4611 Y28.0820
G01 X16.5193 Y28.1347
G01 X16.5244 Y28.1400
G01 X16.5786 Y28.2002
G01 X16.6239 Y28.2613
G01 X16.6294 Y28.2694
G01 X16.6696 Y28.3368
G01 X16.7043 Y28.4100
G01 X16.7071 Y28.4168
G01 X16.7334 Y28.4908
G01 X16.7526 Y28.5669
G01 X16.7545 Y28.5765
G01 X16.7659 Y28.6542
G01 X16.7699 Y28.7326
G01 X16.7699 Y28.7424
G01 X16.7661 Y28.8184
G01 X16.7653 Y28.8257
G01 X16.7537 Y28.9033
G01 X16.7347 Y28.9795
G01 X16.7319 Y28.9889
G01 X16.7071 Y29.0582
G01 X16.7033 Y29.0673
G01 X16.6696 Y29.1382
G01 X16.6267 Y29.2097
G01 X16.5771 Y29.2767
G01 X16.5210 Y29.3385
G01 X16.4592 Y29.3946
G01 X16.3922 Y29.4442
G01 X16.3207 Y29.4871
G01 X16.2498 Y29.5208
G01 X16.2407 Y29.5246
G01 X16.1667 Y29.5509
G01 X16.0906 Y29.5701
G01 X16.0810 Y29.5720
G01 X16.0082 Y29.5828
G01 X15.9984 Y29.5838
G01 X15.9200 Y29.5875
G01 X15.8367 Y29.5834
G01 X15.7542 Y29.5712
G01 X15.6733 Y29.5509
G01 X15.5947 Y29.5228
G01 X15.5193 Y29.4871
G01 X15.4478 Y29.4442
G01 X15.3808 Y29.3946
G01 X15.3190 Y29.3385
G01 X15.2629 Y29.2767
G01 X15.2133 Y29.2097
G01 X15.1704 Y29.1382
G01 X15.1347 Y29.0628
G01 X15.1066 Y28.9842
G01 X15.0863 Y28.9033
G01 X15.0741 Y28.8208
G01 X15.0701 Y28.7424
G01 X15.0701 Y28.7326
G01 X15.0741 Y28.6542
G01 X15.0855 Y28.5765
G01 X15.0874 Y28.5669
G01 X15.1066 Y28.4908
G01 X15.1329 Y28.4168
G01 X15.1357 Y28.4100
G01 X15.1682 Y28.3412
G01 X15.1728 Y28.3325
G01 X15.2133 Y28.2653
G01 X15.2614 Y28.2002
G01 X15.3156 Y28.1400
G01 X15.3207 Y28.1347
G01 X15.3789 Y28.0820
G01 X15.4198 Y28.0513
G01 X15.4198 Y23.8300
G01 X15.4222 Y23.7810
G01 X15.4294 Y23.7324
G01 X15.4413 Y23.6848
G01 X15.4588 Y23.6363
G01 X15.4789 Y23.5942
G01 X15.5041 Y23.5521
G01 X15.5333 Y23.5127
G01 X15.5663 Y23.4763
G01 X20.9598 Y18.0828
G01 X20.9598 Y5.0672
G01 X20.0528 Y4.1602
G01 X16.3572 Y4.1602
G01 X15.6602 Y4.8572
G01 X15.6602 Y5.6534
G01 X15.6898 Y5.6715
G01 X15.7588 Y5.7226
G01 X15.7646 Y5.7272
G01 X15.8318 Y5.7882
G01 X15.8928 Y5.8554
G01 X15.9471 Y5.9282
G01 X15.9525 Y5.9364
G01 X15.9978 Y6.0122
G01 X16.0357 Y6.0920
G01 X16.0386 Y6.0987
G01 X16.0691 Y6.1842
G01 X16.0917 Y6.2747
G01 X16.1054 Y6.3669
G01 X16.1099 Y6.4551
G01 X16.1099 Y6.4649
G01 X16.1058 Y6.5482
G01 X16.1048 Y6.5580
G01 X16.0917 Y6.6453
G01 X16.0704 Y6.7310
G01 X16.0684 Y6.7381
G01 X16.0377 Y6.8235
G01 X16.0000 Y6.9034
G01 X15.9954 Y6.9121
G01 X15.9499 Y6.9878
G01 X15.8974 Y7.0588
G01 X15.8912 Y7.0664
G01 X15.8318 Y7.1318
G01 X15.7627 Y7.1944
G01 X15.6918 Y7.2471
G01 X15.6836 Y7.2525
G01 X15.6078 Y7.2978
G01 X15.5235 Y7.3377
G01 X15.4358 Y7.3691
G01 X15.3501 Y7.3907
G01 X15.3405 Y7.3926
G01 X15.2531 Y7.4054
G01 X15.1600 Y7.4100
G01 X15.0669 Y7.4054
G01 X14.9747 Y7.3917
G01 X14.8890 Y7.3704
G01 X14.8796 Y7.3676
G01 X14.8010 Y7.3395
G01 X14.7920 Y7.3357
G01 X14.7122 Y7.2978
G01 X14.6322 Y7.2499
G01 X14.5573 Y7.1944
G01 X14.4918 Y7.1351
G01 X14.4849 Y7.1282
G01 X14.4288 Y7.0664
G01 X14.4226 Y7.0588
G01 X14.3701 Y6.9878
G01 X14.3222 Y6.9078
G01 X14.2823 Y6.8235
G01 X14.2516 Y6.7381
G01 X14.2496 Y6.7310
G01 X14.2283 Y6.6453
G01 X14.2152 Y6.5580
G01 X14.2142 Y6.5482
G01 X14.2101 Y6.4649
G01 X14.2101 Y6.4551
G01 X14.2146 Y6.3669
G01 X14.2283 Y6.2747
G01 X14.2509 Y6.1842
G01 X14.2814 Y6.0987
G01 X14.3200 Y6.0166
G01 X14.3246 Y6.0079
G01 X14.3701 Y5.9322
G01 X14.4226 Y5.8612
G01 X14.4272 Y5.8554
G01 X14.4882 Y5.7882
G01 X14.5554 Y5.7272
G01 X14.5612 Y5.7226
G01 X14.6302 Y5.6715
G01 X14.6598 Y5.6534
G00 Z5.0000
G00 X24.8400 Y9.9500
G01 F60.00
G01 Z0.0000
G01 F70.00
G01 X24.8302 Y9.9495
G01 X24.8205 Y9.9481
G01 X24.8110 Y9.9457
G01 X24.8017 Y9.9424
G01 X24.7929 Y9.9382
G01 X24.7844 Y9.9331
G01 X24.7785 Y9.9288
G01 X24.7710 Y9.9224
G01 X24.7643 Y9.9153
G01 X24.7582 Y9.9076
G01 X24.7530 Y9.8993
G01 X24.7486 Y9.8905
G01 X24.7458 Y9.8837
G01 X24.7430 Y9.8743
G01 X24.7411 Y9.8647
G01 X24.7401 Y9.8549
G01 X24.7400 Y8.1475
G01 X24.7408 Y8.1378
G01 X24.7424 Y8.1281
G01 X24.7443 Y8.1210
G01 X24.7476 Y8.1117
G01 X24.7518 Y8.1029
G01 X24.7569 Y8.0944
G01 X24.7627 Y8.0866
G01 X24.7676 Y8.0810
G01 X24.7766 Y8.0727
G01 X24.7844 Y8.0669
G01 X24.7929 Y8.0618
G01 X24.8017 Y8.0576
G01 X24.8110 Y8.0543
G01 X24.8205 Y8.0519
G01 X24.8302 Y8.0505
G01 X24.8400 Y8.0500
G01 X26.5425 Y8.0500
G01 X26.5522 Y8.0508
G01 X26.5619 Y8.0524
G01 X26.5714 Y8.0550
G01 X26.5783 Y8.0576
G01 X26.5871 Y8.0618
G01 X26.5956 Y8.0669
G01 X26.6034 Y8.0727
G01 X26.6090 Y8.0776
G01 X26.6157 Y8.0847
G01 X26.6218 Y8.0924
G01 X26.6282 Y8.1029
G01 X26.6324 Y8.1117
G01 X26.6357 Y8.1210
G01 X26.6381 Y8.1305
G01 X26.6395 Y8.1402
G01 X26.6400 Y8.1500
G01 X26.6400 Y9.8525
G01 X26.6392 Y9.8622
G01 X26.6376 Y9.8719
G01 X26.6357 Y9.8790
G01 X26.6324 Y9.8883
G01 X26.6282 Y9.8971
G01 X26.6245 Y9.9035
G01 X26.6188 Y9.9115
G01 X26.6124 Y9.9190
G01 X26.6053 Y9.9257
G01 X26.5976 Y9.9318
G01 X26.5893 Y9.9370
G01 X26.5805 Y9.9414
G01 X26.5714 Y9.9450
G01 X26.5619 Y9.9476
G01 X26.5522 Y9.9492
G01 X26.5425 Y9.9500
G01 X24.8400 Y9.9500
G00 Z5.0000
G00 X25.6949 Y7.4099
G01 F60.00
G01 Z0.0000
G01 F70.00
G01 X25.6851 Y7.4099
G01 X25.5969 Y7.4054
G01 X25.5047 Y7.3917
G01 X25.4142 Y7.3691
G01 X25.3265 Y7.3377
G01 X25.2422 Y7.2978
G01 X25.1622 Y7.2499
G01 X25.0873 Y7.1944
G01 X25.0182 Y7.1318
G01 X24.9556 Y7.0627
G01 X24.9001 Y6.9878
G01 X24.8522 Y6.9078
G01 X24.8123 Y6.8235
G01 X24.7809 Y6.7358
G01 X24.7583 Y6.6453
G01 X24.7446 Y6.5531
G01 X24.7400 Y6.4600
G01 X24.7446 Y6.3669
G01 X24.7583 Y6.2747
G01 X24.7809 Y6.1842
G01 X24.8123 Y6.0965
G01 X24.8522 Y6.0122
G01 X24.9001 Y5.9322
G01 X24.9556 Y5.8573
G01 X25.0182 Y5.7882
G01 X25.0873 Y5.7256
G01 X25.1622 Y5.6701
G01 X25.2422 Y5.6222
G01 X25.3265 Y5.5823
G01 X25.4142 Y5.5509
G01 X25.5047 Y5.5283
G01 X25.5969 Y5.5146
G01 X25.6900 Y5.5100
G01 X25.7831 Y5.5146
G01 X25.8753 Y5.5283
G01 X25.9658 Y5.5509
G01 X26.0535 Y5.5823
G01 X26.1378 Y5.6222
G01 X26.2178 Y5.6701
G01 X26.2927 Y5.7256
G01 X26.3618 Y5.7882
G01 X26.4244 Y5.8573
G01 X26.4799 Y5.9322
G01 X26.5278 Y6.0122
G01 X26.5677 Y6.0965
G01 X26.5991 Y6.1842
G01 X26.6217 Y6.2747
G01 X26.6354 Y6.3669
G01 X26.6400 Y6.4600
G01 X26.6354 Y6.5531
G01 X26.6217 Y6.6453
G01 X26.5991 Y6.7358
G01 X26.5677 Y6.8235
G01 X26.5278 Y6.9078
G01 X26.4799 Y6.9878
G01 X26.4244 Y7.0627
G01 X26.3618 Y7.1318
G01 X26.2927 Y7.1944
G01 X26.2178 Y7.2499
G01 X26.1378 Y7.2978
G01 X26.0535 Y7.3377
G01 X25.9658 Y7.3691
G01 X25.8753 Y7.3917
G01 X25.7831 Y7.4054
G01 X25.6949 Y7.4099
G00 Z5.0000
G00 X28.2349 Y7.4099
G01 F60.00
G01 Z0.0000
G01 F70.00
G01 X28.2251 Y7.4099
G01 X28.1369 Y7.4054
G01 X28.0447 Y7.3917
G01 X27.9542 Y7.3691
G01 X27.8665 Y7.3377
G01 X27.7822 Y7.2978
G01 X27.7022 Y7.2499
G01 X27.6273 Y7.1944
G01 X27.5582 Y7.1318
G01 X27.4956 Y7.0627
G01 X27.4401 Y6.9878
G01 X27.3922 Y6.9078
G01 X27.3523 Y6.8235
G01 X27.3209 Y6.7358
G01 X27.2983 Y6.6453
G01 X27.2846 Y6.5531
G01 X27.2800 Y6.4600
G01 X27.2846 Y6.3669
G01 X27.2983 Y6.2747
G01 X27.3209 Y6.1842
G01 X27.3523 Y6.0965
G01 X27.3922 Y6.0122
G01 X27.4401 Y5.9322
G01 X27.4956 Y5.8573
G01 X27.5582 Y5.7882
G01 X27.6273 Y5.7256
G01 X27.7022 Y5.6701
G01 X27.7822 Y5.6222
G01 X27.8665 Y5.5823
G01 X27.9542 Y5.5509
G01 X28.0447 Y5.5283
G01 X28.1369 Y5.5146
G01 X28.2300 Y5.5100
G01 X28.3231 Y5.5146
G01 X28.4153 Y5.5283
G01 X28.5058 Y5.5509
G01 X28.5935 Y5.5823
G01 X28.6778 Y5.6222
G01 X28.7578 Y5.6701
G01 X28.8327 Y5.7256
G01 X28.9018 Y5.7882
G01 X28.9644 Y5.8573
G01 X29.0199 Y5.9322
G01 X29.0678 Y6.0122
G01 X29.1077 Y6.0965
G01 X29.1391 Y6.1842
G01 X29.1617 Y6.2747
G01 X29.1754 Y6.3669
G01 X29.1800 Y6.4600
G01 X29.1754 Y6.5531
G01 X29.1617 Y6.6453
G01 X29.1391 Y6.7358
G01 X29.1077 Y6.8235
G01 X29.0678 Y6.9078
G01 X29.0199 Y6.9878
G01 X28.9644 Y7.0627
G01 X28.9018 Y7.1318
G01 X28.8327 Y7.1944
G01 X28.7578 Y7.2499
G01 X28.6778 Y7.2978
G01 X28.5935 Y7.3377
G01 X28.5058 Y7.3691
G01 X28.4153 Y7.3917
G01 X28.3231 Y7.4054
G01 X28.2349 Y7.4099
G00 Z5.0000
G00 X27.8710 Y9.8795
G01 F60.00
G01 Z0.0000
G01 F70.00
G01 X27.8620 Y9.8757
G01 X27.7822 Y9.8378
G01 X27.7022 Y9.7899
G01 X27.6273 Y9.7344
G01 X27.5582 Y9.6718
G01 X27.4956 Y9.6027
G01 X27.4401 Y9.5278
G01 X27.3922 Y9.4478
G01 X27.3523 Y9.3635
G01 X27.3209 Y9.2758
G01 X27.2983 Y9.1853
G01 X27.2846 Y9.0931
G01 X27.2800 Y9.0000
G01 X27.2846 Y8.9069
G01 X27.2983 Y8.8147
G01 X27.3209 Y8.7242
G01 X27.3523 Y8.6365
G01 X27.3922 Y8.5522
G01 X27.4401 Y8.4722
G01 X27.4956 Y8.3973
G01 X27.5582 Y8.3282
G01 X27.6273 Y8.2656
G01 X27.7022 Y8.2101
G01 X27.7822 Y8.1622
G01 X27.8665 Y8.1223
G01 X27.9542 Y8.0909
G01 X28.0447 Y8.0683
G01 X28.1369 Y8.0546
G01 X28.2300 Y8.0500
G01 X28.3231 Y8.0546
G01 X28.4153 Y8.0683
G01 X28.5058 Y8.0909
G01 X28.5935 Y8.1223
G01 X28.6778 Y8.1622
G01 X28.7578 Y8.2101
G01 X28.8327 Y8.2656
G01 X28.9018 Y8.3282
G01 X28.9644 Y8.3973
G01 X29.0199 Y8.4722
G01 X29.0678 Y8.5522
G01 X29.1077 Y8.6365
G01 X29.1391 Y8.7242
G01 X29.1617 Y8.8147
G01 X29.1754 Y8.9069
G01 X29.1800 Y9.0000
G01 X29.1754 Y9.0931
G01 X29.1617 Y9.1853
G01 X29.1391 Y9.2758
G01 X29.1077 Y9.3635
G01 X29.0678 Y9.4478
G01 X29.0199 Y9.5278
G01 X28.9644 Y9.6027
G01 X28.9018 Y9.6718
G01 X28.8327 Y9.7344
G01 X28.7578 Y9.7899
G01 X28.6778 Y9.8378
G01 X28.5935 Y9.8777
G01 X28.5058 Y9.9091
G01 X28.4153 Y9.9317
G01 X28.3231 Y9.9454
G01 X28.2300 Y9.9500
G01 X28.1369 Y9.9454
G01 X28.0447 Y9.9317
G01 X27.9542 Y9.9091
G01 X27.8710 Y9.8795
G00 Z5.0000
G00 X26.9602 Y14.6433
G01 F60.00
G01 Z0.0000
G01 F70.00
G01 X26.9511 Y14.6395
G01 X26.8757 Y14.6037
G01 X26.8000 Y14.5583
G01 X26.7290 Y14.5057
G01 X26.6672 Y14.4498
G01 X26.6602 Y14.4428
G01 X26.6043 Y14.3810
G01 X26.5545 Y14.3140
G01 X26.5491 Y14.3059
G01 X26.5087 Y14.2385
G01 X26.5041 Y14.2299
G01 X26.4685 Y14.1544
G01 X26.4388 Y14.0713
G01 X26.4173 Y13.9856
G01 X26.4043 Y13.8982
G01 X26.4000 Y13.8100
G01 X26.4040 Y13.7267
G01 X26.4049 Y13.7169
G01 X26.4173 Y13.6344
G01 X26.4374 Y13.5535
G01 X26.4403 Y13.5441
G01 X26.4667 Y13.4702
G01 X26.4705 Y13.4611
G01 X26.5063 Y13.3857
G01 X26.5517 Y13.3100
G01 X26.6043 Y13.2390
G01 X26.6636 Y13.1736
G01 X26.7290 Y13.1143
G01 X26.7980 Y13.0631
G01 X26.8041 Y13.0591
G01 X26.8757 Y13.0163
G01 X26.9533 Y12.9795
G01 X26.9602 Y12.9767
G01 X27.0364 Y12.9495
G01 X27.0591 Y12.9435
G01 X30.2252 Y9.7774
G01 X30.1673 Y9.7344
G01 X30.1018 Y9.6751
G01 X30.0949 Y9.6682
G01 X30.0388 Y9.6064
G01 X30.0326 Y9.5988
G01 X29.9801 Y9.5278
G01 X29.9346 Y9.4521
G01 X29.9300 Y9.4434
G01 X29.8923 Y9.3635
G01 X29.8609 Y9.2758
G01 X29.8383 Y9.1853
G01 X29.8246 Y9.0931
G01 X29.8200 Y9.0000
G01 X29.8246 Y8.9069
G01 X29.8383 Y8.8147
G01 X29.8596 Y8.7290
G01 X29.8624 Y8.7196
G01 X29.8905 Y8.6410
G01 X29.8943 Y8.6320
G01 X29.9322 Y8.5522
G01 X29.9775 Y8.4764
G01 X29.9829 Y8.4682
G01 X30.0356 Y8.3973
G01 X30.0965 Y8.3300
G01 X30.1018 Y8.3249
G01 X30.1673 Y8.2656
G01 X30.2382 Y8.2129
G01 X30.2464 Y8.2075
G01 X30.3179 Y8.1646
G01 X30.3266 Y8.1600
G01 X30.4065 Y8.1223
G01 X30.4942 Y8.0909
G01 X30.5847 Y8.0683
G01 X30.6769 Y8.0546
G01 X30.7700 Y8.0500
G01 X30.8582 Y8.0542
G01 X30.8680 Y8.0552
G01 X30.9505 Y8.0674
G01 X30.9601 Y8.0693
G01 X31.0458 Y8.0909
G01 X31.1335 Y8.1223
G01 X31.2178 Y8.1622
G01 X31.2978 Y8.2101
G01 X31.3688 Y8.2626
G01 X31.3764 Y8.2688
G01 X31.4418 Y8.3282
G01 X31.5012 Y8.3936
G01 X31.5074 Y8.4012
G01 X31.5599 Y8.4722
G01 X31.6054 Y8.5479
G01 X31.6100 Y8.5566
G01 X31.6477 Y8.6365
G01 X31.6776 Y8.7196
G01 X31.6804 Y8.7290
G01 X31.7017 Y8.8147
G01 X31.7148 Y8.9020
G01 X31.7158 Y8.9118
G01 X31.7200 Y9.0000
G01 X31.7158 Y9.0882
G01 X31.7148 Y9.0980
G01 X31.7017 Y9.1853
G01 X31.6804 Y9.2710
G01 X31.6776 Y9.2804
G01 X31.6477 Y9.3635
G01 X31.6100 Y9.4434
G01 X31.6054 Y9.4521
G01 X31.5612 Y9.5257
G01 X31.5571 Y9.5318
G01 X31.5044 Y9.6027
G01 X31.4451 Y9.6682
G01 X31.4400 Y9.6735
G01 X31.3764 Y9.7312
G01 X31.3708 Y9.7359
G01 X31.2998 Y9.7885
G01 X31.2705 Y9.8064
G01 X31.2701 Y9.9449
G01 X31.2678 Y9.9890
G01 X31.2606 Y10.0376
G01 X31.2487 Y10.0852
G01 X31.2321 Y10.1314
G01 X31.2111 Y10.1758
G01 X31.1859 Y10.2179
G01 X31.1567 Y10.2573
G01 X31.1237 Y10.2937
G01 X28.0706 Y13.3468
G01 X28.0949 Y13.3879
G01 X28.1295 Y13.4611
G01 X28.1324 Y13.4679
G01 X28.1612 Y13.5487
G01 X28.1822 Y13.6320
G01 X28.1951 Y13.7169
G01 X28.1960 Y13.7267
G01 X28.2000 Y13.8100
G01 X28.1960 Y13.8933
G01 X28.1954 Y13.9007
G01 X28.1827 Y13.9856
G01 X28.1612 Y14.0713
G01 X28.1315 Y14.1544
G01 X28.0959 Y14.2299
G01 X28.0913 Y14.2385
G01 X28.0509 Y14.3059
G01 X28.0455 Y14.3140
G01 X27.9957 Y14.3810
G01 X27.9381 Y14.4446
G01 X27.8747 Y14.5025
G01 X27.8671 Y14.5087
G01 X27.8000 Y14.5583
G01 X27.7243 Y14.6037
G01 X27.6444 Y14.6415
G01 X27.5659 Y14.6697
G01 X27.5565 Y14.6726
G01 X27.4756 Y14.6927
G01 X27.3882 Y14.7057
G01 X27.3049 Y14.7099
G01 X27.2951 Y14.7099
G01 X27.2118 Y14.7057
G01 X27.1293 Y14.6935
G01 X27.1196 Y14.6916
G01 X27.0387 Y14.6712
G01 X26.9602 Y14.6433
G00 Z5.0000
G00 X30.0244 Y14.6433
G01 F60.00
G01 Z0.0000
G01 F70.00
G01 X30.0154 Y14.6395
G01 X29.9400 Y14.6037
G01 X29.8643 Y14.5583
G01 X29.7933 Y14.5057
G01 X29.7279 Y14.4464
G01 X29.6686 Y14.3810
G01 X29.6160 Y14.3100
G01 X29.5706 Y14.2343
G01 X29.5348 Y14.1589
G01 X29.5310 Y14.1498
G01 X29.5030 Y14.0713
G01 X29.4827 Y13.9904
G01 X29.4807 Y13.9807
G01 X29.4692 Y13.9031
G01 X29.4683 Y13.8933
G01 X29.4643 Y13.8100
G01 X29.4683 Y13.7267
G01 X29.4692 Y13.7169
G01 X29.4816 Y13.6344
G01 X29.5030 Y13.5487
G01 X29.5328 Y13.4656
G01 X29.5683 Y13.3901
G01 X29.5717 Y13.3836
G01 X29.6160 Y13.3100
G01 X29.6686 Y13.2390
G01 X29.7279 Y13.1736
G01 X29.7915 Y13.1159
G01 X29.7972 Y13.1113
G01 X29.8643 Y13.0617
G01 X29.9379 Y13.0175
G01 X29.9444 Y13.0141
G01 X30.0176 Y12.9795
G01 X30.0578 Y12.9648
G01 X32.8098 Y10.2128
G01 X32.8098 Y9.8066
G01 X32.7802 Y9.7885
G01 X32.7092 Y9.7359
G01 X32.7036 Y9.7312
G01 X32.6400 Y9.6735
G01 X32.6349 Y9.6682
G01 X32.5756 Y9.6027
G01 X32.5229 Y9.5318
G01 X32.5188 Y9.5257
G01 X32.4746 Y9.4521
G01 X32.4700 Y9.4434
G01 X32.4323 Y9.3635
G01 X32.4024 Y9.2804
G01 X32.3996 Y9.2710
G01 X32.3783 Y9.1853
G01 X32.3648 Y9.0956
G01 X32.3642 Y9.0882
G01 X32.3600 Y9.0000
G01 X32.3646 Y8.9069
G01 X32.3783 Y8.8147
G01 X32.4009 Y8.7242
G01 X32.4323 Y8.6365
G01 X32.4722 Y8.5522
G01 X32.5201 Y8.4722
G01 X32.5756 Y8.3973
G01 X32.6382 Y8.3282
G01 X32.7036 Y8.2688
G01 X32.7112 Y8.2626
G01 X32.7782 Y8.2129
G01 X32.7864 Y8.2075
G01 X32.8622 Y8.1622
G01 X32.9465 Y8.1223
G01 X33.0342 Y8.0909
G01 X33.1247 Y8.0683
G01 X33.2169 Y8.0546
G01 X33.3100 Y8.0500
G01 X33.4031 Y8.0546
G01 X33.4905 Y8.0674
G01 X33.5001 Y8.0693
G01 X33.5810 Y8.0896
G01 X33.5904 Y8.0924
G01 X33.6735 Y8.1223
G01 X33.7534 Y8.1600
G01 X33.7600 Y8.1634
G01 X33.8378 Y8.2101
G01 X33.9088 Y8.2626
G01 X33.9164 Y8.2688
G01 X33.9818 Y8.3282
G01 X34.0412 Y8.3936
G01 X34.0474 Y8.4012
G01 X34.0999 Y8.4722
G01 X34.1454 Y8.5479
G01 X34.1500 Y8.5566
G01 X34.1877 Y8.6365
G01 X34.2176 Y8.7196
G01 X34.2204 Y8.7290
G01 X34.2417 Y8.8147
G01 X34.2548 Y8.9020
G01 X34.2558 Y8.9118
G01 X34.2600 Y9.0000
G01 X34.2558 Y9.0882
G01 X34.2548 Y9.0980
G01 X34.2417 Y9.1853
G01 X34.2204 Y9.2710
G01 X34.2176 Y9.2804
G01 X34.1877 Y9.3635
G01 X34.1500 Y9.4434
G01 X34.1466 Y9.4500
G01 X34.0999 Y9.5278
G01 X34.0474 Y9.5988
G01 X34.0412 Y9.6064
G01 X33.9835 Y9.6700
G01 X33.9782 Y9.6751
G01 X33.9108 Y9.7359
G01 X33.8398 Y9.7885
G01 X33.8106 Y9.8063
G01 X33.8102 Y10.4201
G01 X33.8080 Y10.4666
G01 X33.8006 Y10.5176
G01 X33.7887 Y10.5652
G01 X33.7721 Y10.6114
G01 X33.7500 Y10.6579
G01 X33.7259 Y10.6979
G01 X33.6997 Y10.7335
G01 X33.6935 Y10.7410
G01 X33.6637 Y10.7737
G01 X31.1182 Y13.3191
G01 X31.1580 Y13.3857
G01 X31.1958 Y13.4656
G01 X31.2255 Y13.5487
G01 X31.2459 Y13.6296
G01 X31.2478 Y13.6393
G01 X31.2594 Y13.7169
G01 X31.2603 Y13.7267
G01 X31.2643 Y13.8100
G01 X31.2600 Y13.8982
G01 X31.2470 Y13.9856
G01 X31.2268 Y14.0665
G01 X31.2240 Y14.0759
G01 X31.1975 Y14.1498
G01 X31.1938 Y14.1589
G01 X31.1580 Y14.2343
G01 X31.1126 Y14.3100
G01 X31.0600 Y14.3810
G01 X31.0024 Y14.4446
G01 X30.9390 Y14.5025
G01 X30.9314 Y14.5087
G01 X30.8643 Y14.5583
G01 X30.7885 Y14.6037
G01 X30.7087 Y14.6415
G01 X30.6302 Y14.6697
G01 X30.6208 Y14.6726
G01 X30.5399 Y14.6927
G01 X30.4525 Y14.7057
G01 X30.3692 Y14.7099
G01 X30.3594 Y14.7099
G01 X30.2761 Y14.7057
G01 X30.1935 Y14.6935
G01 X30.1839 Y14.6916
G01 X30.1030 Y14.6712
G01 X30.0244 Y14.6433
G00 Z5.0000
G00 X33.0368 Y13.0008
G01 F60.00
G01 Z0.0000
G01 F70.00
G01 X33.0451 Y12.9904
G01 X33.0749 Y12.9577
G01 X35.3498 Y10.6828
G01 X35.3498 Y9.8066
G01 X35.3202 Y9.7885
G01 X35.2492 Y9.7359
G01 X35.2436 Y9.7312
G01 X35.1800 Y9.6735
G01 X35.1749 Y9.6682
G01 X35.1156 Y9.6027
G01 X35.0629 Y9.5318
G01 X35.0588 Y9.5257
G01 X35.0146 Y9.4521
G01 X35.0100 Y9.4434
G01 X34.9723 Y9.3635
G01 X34.9424 Y9.2804
G01 X34.9396 Y9.2710
G01 X34.9183 Y9.1853
G01 X34.9048 Y9.0956
G01 X34.9042 Y9.0882
G01 X34.9000 Y9.0000
G01 X34.9046 Y8.9069
G01 X34.9183 Y8.8147
G01 X34.9396 Y8.7290
G01 X34.9424 Y8.7196
G01 X34.9705 Y8.6410
G01 X34.9743 Y8.6320
G01 X35.0122 Y8.5522
G01 X35.0575 Y8.4764
G01 X35.0615 Y8.4702
G01 X35.1156 Y8.3973
G01 X35.1782 Y8.3282
G01 X35.2473 Y8.2656
G01 X35.3222 Y8.2101
G01 X35.4022 Y8.1622
G01 X35.4865 Y8.1223
G01 X35.5742 Y8.0909
G01 X35.6647 Y8.0683
G01 X35.7569 Y8.0546
G01 X35.8500 Y8.0500
G01 X35.9431 Y8.0546
G01 X36.0353 Y8.0683
G01 X36.1258 Y8.0909
G01 X36.2135 Y8.1223
G01 X36.2978 Y8.1622
G01 X36.3736 Y8.2075
G01 X36.3798 Y8.2115
G01 X36.4488 Y8.2626
G01 X36.4564 Y8.2688
G01 X36.5218 Y8.3282
G01 X36.5812 Y8.3936
G01 X36.5874 Y8.4012
G01 X36.6399 Y8.4722
G01 X36.6878 Y8.5522
G01 X36.7257 Y8.6320
G01 X36.7295 Y8.6410
G01 X36.7591 Y8.7242
G01 X36.7807 Y8.8099
G01 X36.7826 Y8.8195
G01 X36.7954 Y8.9069
G01 X36.7999 Y8.9951
G01 X36.8000 Y9.0025
G01 X36.7958 Y9.0882
G01 X36.7948 Y9.0980
G01 X36.7817 Y9.1853
G01 X36.7604 Y9.2710
G01 X36.7576 Y9.2804
G01 X36.7277 Y9.3635
G01 X36.6900 Y9.4434
G01 X36.6866 Y9.4500
G01 X36.6399 Y9.5278
G01 X36.5874 Y9.5988
G01 X36.5812 Y9.6064
G01 X36.5235 Y9.6700
G01 X36.5182 Y9.6751
G01 X36.4508 Y9.7359
G01 X36.3798 Y9.7885
G01 X36.3507 Y9.8063
G01 X36.3502 Y10.8925
G01 X36.3478 Y10.9390
G01 X36.3406 Y10.9876
G01 X36.3287 Y11.0352
G01 X36.3130 Y11.0791
G01 X36.2911 Y11.1258
G01 X36.2659 Y11.1679
G01 X36.2367 Y11.2073
G01 X36.2054 Y11.2419
G01 X34.1602 Y13.2872
G01 X34.1782 Y13.3120
G01 X34.2211 Y13.3836
G01 X34.2245 Y13.3901
G01 X34.2591 Y13.4633
G01 X34.2618 Y13.4702
G01 X34.2898 Y13.5487
G01 X34.3108 Y13.6320
G01 X34.3121 Y13.6393
G01 X34.3242 Y13.7218
G01 X34.3286 Y13.8100
G01 X34.3242 Y13.8982
G01 X34.3121 Y13.9807
G01 X34.3108 Y13.9880
G01 X34.2898 Y14.0713
G01 X34.2618 Y14.1498
G01 X34.2581 Y14.1589
G01 X34.2245 Y14.2299
G01 X34.2199 Y14.2385
G01 X34.1769 Y14.3100
G01 X34.1273 Y14.3771
G01 X34.1211 Y14.3847
G01 X34.0650 Y14.4464
G01 X33.9995 Y14.5057
G01 X33.9286 Y14.5583
G01 X33.8571 Y14.6013
G01 X33.8506 Y14.6049
G01 X33.7730 Y14.6415
G01 X33.6898 Y14.6712
G01 X33.6042 Y14.6927
G01 X33.5168 Y14.7057
G01 X33.4286 Y14.7100
G01 X33.3404 Y14.7057
G01 X33.2530 Y14.6927
G01 X33.1673 Y14.6712
G01 X33.0842 Y14.6415
G01 X33.0043 Y14.6037
G01 X32.9286 Y14.5583
G01 X32.8576 Y14.5057
G01 X32.7922 Y14.4464
G01 X32.7329 Y14.3810
G01 X32.6802 Y14.3100
G01 X32.6373 Y14.2385
G01 X32.6337 Y14.2321
G01 X32.5971 Y14.1544
G01 X32.5673 Y14.0713
G01 X32.5459 Y13.9856
G01 X32.5329 Y13.8982
G01 X32.5286 Y13.8100
G01 X32.5329 Y13.7218
G01 X32.5459 Y13.6344
G01 X32.5660 Y13.5535
G01 X32.5681 Y13.5464
G01 X32.5971 Y13.4656
G01 X32.6348 Y13.3857
G01 X32.6802 Y13.3100
G01 X32.7298 Y13.2429
G01 X32.7344 Y13.2372
G01 X32.7922 Y13.1736
G01 X32.8539 Y13.1175
G01 X32.8595 Y13.1128
G01 X32.9245 Y13.0645
G01 X32.9306 Y13.0603
G01 X33.0022 Y13.0175
G01 X33.0368 Y13.0008
G00 Z5.0000
G00 X36.1530 Y14.6433
G01 F60.00
G01 Z0.0000
G01 F70.00
G01 X36.1440 Y14.6395
G01 X36.0686 Y14.6037
G01 X35.9928 Y14.5583
G01 X35.9219 Y14.5057
G01 X35.8565 Y14.4464
G01 X35.7971 Y14.3810
G01 X35.7445 Y14.3100
G01 X35.6991 Y14.2343
G01 X35.6634 Y14.1589
G01 X35.6596 Y14.1498
G01 X35.6316 Y14.0713
G01 X35.6112 Y13.9904
G01 X35.6093 Y13.9807
G01 X35.5978 Y13.9031
G01 X35.5968 Y13.8933
G01 X35.5929 Y13.8100
G01 X35.5968 Y13.7267
G01 X35.5978 Y13.7169
G01 X35.6101 Y13.6344
G01 X35.6316 Y13.5487
G01 X35.6614 Y13.4656
G01 X35.6980 Y13.3879
G01 X35.7419 Y13.3141
G01 X35.7474 Y13.3060
G01 X35.7971 Y13.2390
G01 X35.8565 Y13.1736
G01 X35.9219 Y13.1143
G01 X35.9928 Y13.0617
G01 X36.0686 Y13.0163
G01 X36.1440 Y12.9805
G01 X36.1575 Y12.9752
G01 X37.8898 Y11.2428
G01 X37.8898 Y9.8066
G01 X37.8602 Y9.7885
G01 X37.7912 Y9.7374
G01 X37.7854 Y9.7328
G01 X37.7182 Y9.6718
G01 X37.6588 Y9.6064
G01 X37.6541 Y9.6008
G01 X37.6001 Y9.5278
G01 X37.5522 Y9.4478
G01 X37.5123 Y9.3635
G01 X37.4816 Y9.2781
G01 X37.4796 Y9.2710
G01 X37.4583 Y9.1853
G01 X37.4452 Y9.0980
G01 X37.4442 Y9.0882
G01 X37.4401 Y9.0049
G01 X37.4401 Y8.9951
G01 X37.4446 Y8.9069
G01 X37.4583 Y8.8147
G01 X37.4809 Y8.7242
G01 X37.5114 Y8.6387
G01 X37.5143 Y8.6320
G01 X37.5522 Y8.5522
G01 X37.6001 Y8.4722
G01 X37.6556 Y8.3973
G01 X37.7182 Y8.3282
G01 X37.7873 Y8.2656
G01 X37.8622 Y8.2101
G01 X37.9422 Y8.1622
G01 X38.0265 Y8.1223
G01 X38.1142 Y8.0909
G01 X38.2047 Y8.0683
G01 X38.2969 Y8.0546
G01 X38.3900 Y8.0500
G01 X38.4831 Y8.0546
G01 X38.5753 Y8.0683
G01 X38.6658 Y8.0909
G01 X38.7513 Y8.1214
G01 X38.8334 Y8.1600
G01 X38.8421 Y8.1646
G01 X38.9178 Y8.2101
G01 X38.9927 Y8.2656
G01 X39.0582 Y8.3249
G01 X39.0651 Y8.3318
G01 X39.1244 Y8.3973
G01 X39.1799 Y8.4722
G01 X39.2278 Y8.5522
G01 X39.2657 Y8.6320
G01 X39.2695 Y8.6410
G01 X39.2991 Y8.7242
G01 X39.3207 Y8.8099
G01 X39.3226 Y8.8195
G01 X39.3354 Y8.9069
G01 X39.3400 Y8.9975
G01 X39.3358 Y9.0882
G01 X39.3348 Y9.0980
G01 X39.3217 Y9.1853
G01 X39.3004 Y9.2710
G01 X39.2976 Y9.2804
G01 X39.2677 Y9.3635
G01 X39.2300 Y9.4434
G01 X39.2266 Y9.4500
G01 X39.1799 Y9.5278
G01 X39.1274 Y9.5988
G01 X39.1212 Y9.6064
G01 X39.0635 Y9.6700
G01 X39.0582 Y9.6751
G01 X38.9908 Y9.7359
G01 X38.9198 Y9.7885
G01 X38.8907 Y9.8063
G01 X38.8902 Y11.4525
G01 X38.8878 Y11.4990
G01 X38.8806 Y11.5476
G01 X38.8687 Y11.5952
G01 X38.8530 Y11.6391
G01 X38.8311 Y11.6858
G01 X38.8059 Y11.7279
G01 X38.7767 Y11.7673
G01 X38.7454 Y11.8019
G01 X37.2396 Y13.3078
G01 X37.2438 Y13.3141
G01 X37.2866 Y13.3857
G01 X37.3224 Y13.4611
G01 X37.3261 Y13.4702
G01 X37.3526 Y13.5441
G01 X37.3554 Y13.5535
G01 X37.3756 Y13.6344
G01 X37.3885 Y13.7218
G01 X37.3929 Y13.8100
G01 X37.3889 Y13.8933
G01 X37.3879 Y13.9031
G01 X37.3764 Y13.9807
G01 X37.3745 Y13.9904
G01 X37.3541 Y14.0713
G01 X37.3243 Y14.1544
G01 X37.2866 Y14.2343
G01 X37.2438 Y14.3059
G01 X37.2384 Y14.3140
G01 X37.1916 Y14.3771
G01 X37.1854 Y14.3847
G01 X37.1293 Y14.4464
G01 X37.0675 Y14.5025
G01 X37.0599 Y14.5087
G01 X36.9969 Y14.5555
G01 X36.9887 Y14.5609
G01 X36.9171 Y14.6037
G01 X36.8373 Y14.6415
G01 X36.7541 Y14.6712
G01 X36.6732 Y14.6916
G01 X36.6636 Y14.6935
G01 X36.5859 Y14.7051
G01 X36.5762 Y14.7060
G01 X36.4929 Y14.7100
G01 X36.4046 Y14.7057
G01 X36.3221 Y14.6935
G01 X36.3125 Y14.6916
G01 X36.2316 Y14.6712
G01 X36.1530 Y14.6433
G00 Z5.0000
G00 X38.3949 Y7.4099
G01 F60.00
G01 Z0.0000
G01 F70.00
G01 X38.3851 Y7.4099
G01 X38.2969 Y7.4054
G01 X38.2047 Y7.3917
G01 X38.1142 Y7.3691
G01 X38.0265 Y7.3377
G01 X37.9422 Y7.2978
G01 X37.8622 Y7.2499
G01 X37.7873 Y7.1944
G01 X37.7182 Y7.1318
G01 X37.6556 Y7.0627
G01 X37.6001 Y6.9878
G01 X37.5522 Y6.9078
G01 X37.5123 Y6.8235
G01 X37.4809 Y6.7358
G01 X37.4583 Y6.6453
G01 X37.4446 Y6.5531
G01 X37.4400 Y6.4600
G01 X37.4446 Y6.3669
G01 X37.4583 Y6.2747
G01 X37.4809 Y6.1842
G01 X37.5123 Y6.0965
G01 X37.5522 Y6.0122
G01 X37.6001 Y5.9322
G01 X37.6556 Y5.8573
G01 X37.7182 Y5.7882
G01 X37.7873 Y5.7256
G01 X37.8622 Y5.6701
G01 X37.9422 Y5.6222
G01 X38.0265 Y5.5823
G01 X38.1142 Y5.5509
G01 X38.2047 Y5.5283
G01 X38.2969 Y5.5146
G01 X38.3900 Y5.5100
G01 X38.4782 Y5.5142
G01 X38.4880 Y5.5152
G01 X38.5753 Y5.5283
G01 X38.6610 Y5.5496
G01 X38.6704 Y5.5524
G01 X38.7535 Y5.5823
G01 X38.8378 Y5.6222
G01 X38.9136 Y5.6675
G01 X38.9218 Y5.6729
G01 X38.9927 Y5.7256
G01 X39.0600 Y5.7865
G01 X39.0651 Y5.7918
G01 X39.1259 Y5.8592
G01 X39.1785 Y5.9302
G01 X39.1988 Y5.9635
G01 X39.2376 Y5.9694
G01 X39.2805 Y5.9800
G01 X39.2899 Y5.9829
G01 X39.3314 Y5.9979
G01 X39.3758 Y6.0189
G01 X39.4137 Y6.0415
G01 X39.4219 Y6.0469
G01 X39.4592 Y6.0749
G01 X39.4937 Y6.1063
G01 X40.7171 Y7.3299
G01 X40.7467 Y7.3627
G01 X40.7731 Y7.3981
G01 X40.7785 Y7.4063
G01 X40.8011 Y7.4442
G01 X40.8221 Y7.4886
G01 X40.8371 Y7.5301
G01 X40.8400 Y7.5395
G01 X40.8510 Y7.5848
G01 X40.8578 Y7.6310
G01 X40.8602 Y7.6800
G01 X40.8602 Y13.0071
G01 X40.8578 Y13.0562
G01 X40.8514 Y13.0999
G01 X40.8495 Y13.1095
G01 X40.8387 Y13.1523
G01 X40.8239 Y13.1940
G01 X40.8201 Y13.2030
G01 X40.8011 Y13.2429
G01 X40.7785 Y13.2809
G01 X40.7731 Y13.2890
G01 X40.7482 Y13.3225
G01 X40.7137 Y13.3608
G01 X40.4399 Y13.6346
G01 X40.4528 Y13.7218
G01 X40.4571 Y13.8100
G01 X40.4528 Y13.8982
G01 X40.4398 Y13.9856
G01 X40.4184 Y14.0713
G01 X40.3886 Y14.1544
G01 X40.3509 Y14.2343
G01 X40.3081 Y14.3059
G01 X40.3041 Y14.3120
G01 X40.2528 Y14.3810
G01 X40.1935 Y14.4464
G01 X40.1281 Y14.5057
G01 X40.0572 Y14.5583
G01 X39.9814 Y14.6037
G01 X39.9016 Y14.6415
G01 X39.8184 Y14.6712
G01 X39.7375 Y14.6916
G01 X39.7303 Y14.6932
G01 X39.6454 Y14.7057
G01 X39.5620 Y14.7099
G01 X39.5522 Y14.7099
G01 X39.4689 Y14.7057
G01 X39.3864 Y14.6935
G01 X39.3768 Y14.6916
G01 X39.3006 Y14.6726
G01 X39.2912 Y14.6697
G01 X39.2127 Y14.6415
G01 X39.1329 Y14.6037
G01 X39.0571 Y14.5583
G01 X38.9862 Y14.5057
G01 X38.9207 Y14.4464
G01 X38.8646 Y14.3847
G01 X38.8584 Y14.3771
G01 X38.8116 Y14.3140
G01 X38.8062 Y14.3059
G01 X38.7634 Y14.2343
G01 X38.7276 Y14.1589
G01 X38.7239 Y14.1498
G01 X38.6959 Y14.0713
G01 X38.6744 Y13.9856
G01 X38.6615 Y13.8982
G01 X38.6573 Y13.8149
G01 X38.6572 Y13.8075
G01 X38.6615 Y13.7218
G01 X38.6736 Y13.6393
G01 X38.6755 Y13.6296
G01 X38.6959 Y13.5487
G01 X38.7239 Y13.4702
G01 X38.7276 Y13.4611
G01 X38.7612 Y13.3901
G01 X38.7658 Y13.3815
G01 X38.8088 Y13.3100
G01 X38.8614 Y13.2390
G01 X38.9207 Y13.1736
G01 X38.9862 Y13.1143
G01 X39.0571 Y13.0617
G01 X39.1329 Y13.0163
G01 X39.2127 Y12.9785
G01 X39.2912 Y12.9503
G01 X39.3006 Y12.9474
G01 X39.3768 Y12.9284
G01 X39.3864 Y12.9265
G01 X39.4689 Y12.9143
G01 X39.5522 Y12.9101
G01 X39.5620 Y12.9101
G01 X39.6454 Y12.9143
G01 X39.7325 Y12.9273
G01 X39.8598 Y12.8000
G01 X39.8598 Y7.8872
G01 X39.0821 Y7.1095
G01 X39.0600 Y7.1335
G01 X38.9946 Y7.1928
G01 X38.9888 Y7.1974
G01 X38.9198 Y7.2485
G01 X38.9136 Y7.2525
G01 X38.8378 Y7.2978
G01 X38.7558 Y7.3367
G01 X38.7490 Y7.3395
G01 X38.6658 Y7.3691
G01 X38.5753 Y7.3917
G01 X38.4831 Y7.4054
G01 X38.3949 Y7.4099
G00 Z5.0000
G00 X35.3498 Y5.6534
G01 F60.00
G01 Z0.0000
G01 F70.00
G01 X35.3498 Y5.6175
G01 X35.3525 Y5.5685
G01 X35.3594 Y5.5224
G01 X35.3721 Y5.4725
G01 X35.3879 Y5.4286
G01 X35.4089 Y5.3842
G01 X35.4341 Y5.3421
G01 X35.4603 Y5.3065
G01 X35.4665 Y5.2990
G01 X35.4963 Y5.2663
G01 X36.6181 Y4.1446
G01 X36.6527 Y4.1133
G01 X36.6881 Y4.0869
G01 X36.6963 Y4.0815
G01 X36.7299 Y4.0613
G01 X36.7386 Y4.0567
G01 X36.7786 Y4.0379
G01 X36.8201 Y4.0229
G01 X36.8295 Y4.0200
G01 X36.8676 Y4.0105
G01 X36.8773 Y4.0086
G01 X36.9210 Y4.0022
G01 X36.9700 Y3.9998
G01 X40.0300 Y3.9998
G01 X40.0741 Y4.0018
G01 X40.0839 Y4.0028
G01 X40.1276 Y4.0094
G01 X40.1752 Y4.0213
G01 X40.2214 Y4.0379
G01 X40.2614 Y4.0567
G01 X40.2701 Y4.0613
G01 X40.3037 Y4.0815
G01 X40.3119 Y4.0869
G01 X40.3473 Y4.1133
G01 X40.3819 Y4.1446
G01 X42.9751 Y6.7377
G01 X43.0049 Y6.7704
G01 X43.0111 Y6.7780
G01 X43.0373 Y6.8135
G01 X43.0601 Y6.8514
G01 X43.0648 Y6.8600
G01 X43.0816 Y6.8955
G01 X43.0853 Y6.9046
G01 X43.1001 Y6.9462
G01 X43.1120 Y6.9938
G01 X43.1192 Y7.0424
G01 X43.1216 Y7.0890
G01 X43.1216 Y13.0618
G01 X43.1885 Y13.1113
G01 X43.1961 Y13.1175
G01 X43.2578 Y13.1736
G01 X43.3139 Y13.2353
G01 X43.3202 Y13.2429
G01 X43.3697 Y13.3100
G01 X43.4152 Y13.3857
G01 X43.4529 Y13.4656
G01 X43.4811 Y13.5441
G01 X43.4840 Y13.5535
G01 X43.5041 Y13.6344
G01 X43.5165 Y13.7169
G01 X43.5175 Y13.7267
G01 X43.5214 Y13.8075
G01 X43.5213 Y13.8149
G01 X43.5171 Y13.8982
G01 X43.5041 Y13.9856
G01 X43.4827 Y14.0713
G01 X43.4547 Y14.1498
G01 X43.4509 Y14.1589
G01 X43.4152 Y14.2343
G01 X43.3724 Y14.3059
G01 X43.3669 Y14.3140
G01 X43.3202 Y14.3771
G01 X43.3139 Y14.3847
G01 X43.2578 Y14.4464
G01 X43.1961 Y14.5025
G01 X43.1885 Y14.5087
G01 X43.1214 Y14.5583
G01 X43.0500 Y14.6013
G01 X43.0413 Y14.6059
G01 X42.9658 Y14.6415
G01 X42.8873 Y14.6697
G01 X42.8780 Y14.6726
G01 X42.7970 Y14.6927
G01 X42.7145 Y14.7051
G01 X42.7047 Y14.7060
G01 X42.6214 Y14.7100
G01 X42.5381 Y14.7060
G01 X42.5283 Y14.7051
G01 X42.4458 Y14.6927
G01 X42.3649 Y14.6726
G01 X42.3555 Y14.6697
G01 X42.2770 Y14.6415
G01 X42.2016 Y14.6059
G01 X42.1929 Y14.6013
G01 X42.1214 Y14.5583
G01 X42.0543 Y14.5087
G01 X42.0468 Y14.5025
G01 X41.9850 Y14.4464
G01 X41.9289 Y14.3847
G01 X41.9227 Y14.3771
G01 X41.8759 Y14.3140
G01 X41.8705 Y14.3059
G01 X41.8277 Y14.2343
G01 X41.7919 Y14.1589
G01 X41.7882 Y14.1498
G01 X41.7602 Y14.0713
G01 X41.7398 Y13.9904
G01 X41.7379 Y13.9807
G01 X41.7258 Y13.8982
G01 X41.7215 Y13.8149
G01 X41.7215 Y13.8051
G01 X41.7258 Y13.7218
G01 X41.7387 Y13.6344
G01 X41.7589 Y13.5535
G01 X41.7617 Y13.5441
G01 X41.7899 Y13.4656
G01 X41.8255 Y13.3901
G01 X41.8301 Y13.3815
G01 X41.8731 Y13.3100
G01 X41.9257 Y13.2390
G01 X41.9816 Y13.1772
G01 X41.9886 Y13.1702
G01 X42.0505 Y13.1143
G01 X42.1212 Y13.0618
G01 X42.1212 Y7.2986
G01 X39.8228 Y5.0002
G01 X37.1772 Y5.0002
G01 X36.4522 Y5.7252
G01 X36.5218 Y5.7882
G01 X36.5812 Y5.8536
G01 X36.5874 Y5.8612
G01 X36.6371 Y5.9282
G01 X36.6425 Y5.9364
G01 X36.6878 Y6.0122
G01 X36.7277 Y6.0965
G01 X36.7591 Y6.1842
G01 X36.7817 Y6.2747
G01 X36.7954 Y6.3669
G01 X36.7999 Y6.4551
G01 X36.7999 Y6.4649
G01 X36.7958 Y6.5482
G01 X36.7948 Y6.5580
G01 X36.7817 Y6.6453
G01 X36.7591 Y6.7358
G01 X36.7277 Y6.8235
G01 X36.6890 Y6.9056
G01 X36.6854 Y6.9121
G01 X36.6399 Y6.9878
G01 X36.5874 Y7.0588
G01 X36.5812 Y7.0664
G01 X36.5218 Y7.1318
G01 X36.4564 Y7.1912
G01 X36.4488 Y7.1974
G01 X36.3778 Y7.2499
G01 X36.2978 Y7.2978
G01 X36.2180 Y7.3357
G01 X36.2090 Y7.3395
G01 X36.1258 Y7.3691
G01 X36.0401 Y7.3907
G01 X36.0305 Y7.3926
G01 X35.9480 Y7.4048
G01 X35.9382 Y7.4058
G01 X35.8549 Y7.4099
G01 X35.8451 Y7.4099
G01 X35.7569 Y7.4054
G01 X35.6695 Y7.3926
G01 X35.6599 Y7.3907
G01 X35.5742 Y7.3691
G01 X35.4865 Y7.3377
G01 X35.4022 Y7.2978
G01 X35.3222 Y7.2499
G01 X35.2473 Y7.1944
G01 X35.1818 Y7.1351
G01 X35.1749 Y7.1282
G01 X35.1188 Y7.0664
G01 X35.1126 Y7.0588
G01 X35.0601 Y6.9878
G01 X35.0122 Y6.9078
G01 X34.9723 Y6.8235
G01 X34.9416 Y6.7381
G01 X34.9396 Y6.7310
G01 X34.9183 Y6.6453
G01 X34.9052 Y6.5580
G01 X34.9042 Y6.5482
G01 X34.9001 Y6.4649
G01 X34.9001 Y6.4551
G01 X34.9046 Y6.3669
G01 X34.9183 Y6.2747
G01 X34.9409 Y6.1842
G01 X34.9714 Y6.0987
G01 X35.0100 Y6.0166
G01 X35.0146 Y6.0079
G01 X35.0601 Y5.9322
G01 X35.1126 Y5.8612
G01 X35.1172 Y5.8554
G01 X35.1782 Y5.7882
G01 X35.2454 Y5.7272
G01 X35.2512 Y5.7226
G01 X35.3202 Y5.6715
G01 X35.3498 Y5.6534
G00 Z5.0000
G00 X32.8098 Y5.6534
G01 F60.00
G01 Z0.0000
G01 F70.00
G01 X32.8099 Y4.4951
G01 X32.8118 Y4.4559
G01 X32.8128 Y4.4461
G01 X32.8194 Y4.4024
G01 X32.8300 Y4.3595
G01 X32.8329 Y4.3501
G01 X32.8479 Y4.3086
G01 X32.8700 Y4.2621
G01 X32.8941 Y4.2221
G01 X32.9203 Y4.1865
G01 X32.9265 Y4.1790
G01 X32.9563 Y4.1463
G01 X34.3081 Y2.7946
G01 X34.3427 Y2.7633
G01 X34.3781 Y2.7369
G01 X34.3863 Y2.7315
G01 X34.4242 Y2.7089
G01 X34.4641 Y2.6899
G01 X34.4732 Y2.6861
G01 X34.5125 Y2.6721
G01 X34.5576 Y2.6605
G01 X34.5673 Y2.6586
G01 X34.6110 Y2.6522
G01 X34.6600 Y2.6498
G01 X41.1800 Y2.6498
G01 X41.2241 Y2.6518
G01 X41.2339 Y2.6528
G01 X41.2776 Y2.6594
G01 X41.3252 Y2.6713
G01 X41.3668 Y2.6861
G01 X41.3759 Y2.6899
G01 X41.4158 Y2.7089
G01 X41.4558 Y2.7328
G01 X41.4973 Y2.7633
G01 X41.5337 Y2.7963
G01 X46.0394 Y7.3020
G01 X46.0724 Y7.3384
G01 X46.1016 Y7.3778
G01 X46.1268 Y7.4199
G01 X46.1469 Y7.4620
G01 X46.1644 Y7.5105
G01 X46.1763 Y7.5581
G01 X46.1835 Y7.6067
G01 X46.1859 Y7.6557
G01 X46.1859 Y13.0618
G01 X46.2567 Y13.1143
G01 X46.3221 Y13.1736
G01 X46.3814 Y13.2390
G01 X46.4340 Y13.3100
G01 X46.4794 Y13.3857
G01 X46.5172 Y13.4656
G01 X46.5470 Y13.5487
G01 X46.5684 Y13.6344
G01 X46.5814 Y13.7218
G01 X46.5857 Y13.8100
G01 X46.5814 Y13.8982
G01 X46.5684 Y13.9856
G01 X46.5470 Y14.0713
G01 X46.5172 Y14.1544
G01 X46.4794 Y14.2343
G01 X46.4354 Y14.3080
G01 X46.3844 Y14.3771
G01 X46.3782 Y14.3847
G01 X46.3221 Y14.4464
G01 X46.2567 Y14.5057
G01 X46.1897 Y14.5555
G01 X46.1816 Y14.5609
G01 X46.1100 Y14.6037
G01 X46.0301 Y14.6415
G01 X45.9470 Y14.6712
G01 X45.8661 Y14.6916
G01 X45.8565 Y14.6935
G01 X45.7739 Y14.7057
G01 X45.6906 Y14.7099
G01 X45.6808 Y14.7099
G01 X45.5975 Y14.7057
G01 X45.5101 Y14.6927
G01 X45.4292 Y14.6726
G01 X45.4198 Y14.6697
G01 X45.3413 Y14.6415
G01 X45.2615 Y14.6037
G01 X45.1898 Y14.5609
G01 X45.1817 Y14.5555
G01 X45.1148 Y14.5057
G01 X45.0493 Y14.4464
G01 X44.9900 Y14.3810
G01 X44.9402 Y14.3140
G01 X44.9348 Y14.3059
G01 X44.8920 Y14.2343
G01 X44.8562 Y14.1589
G01 X44.8525 Y14.1498
G01 X44.8245 Y14.0713
G01 X44.8030 Y13.9856
G01 X44.7906 Y13.9031
G01 X44.7897 Y13.8933
G01 X44.7857 Y13.8100
G01 X44.7900 Y13.7218
G01 X44.8030 Y13.6344
G01 X44.8232 Y13.5535
G01 X44.8260 Y13.5441
G01 X44.8542 Y13.4656
G01 X44.8898 Y13.3901
G01 X44.8944 Y13.3815
G01 X44.9374 Y13.3100
G01 X44.9900 Y13.2390
G01 X45.0459 Y13.1772
G01 X45.0529 Y13.1702
G01 X45.1148 Y13.1143
G01 X45.1855 Y13.0618
G01 X45.1855 Y7.8629
G01 X40.9728 Y3.6502
G01 X34.8672 Y3.6502
G01 X33.8102 Y4.7072
G01 X33.8102 Y5.6534
G01 X33.8398 Y5.6715
G01 X33.9108 Y5.7241
G01 X33.9782 Y5.7849
G01 X33.9835 Y5.7900
G01 X34.0444 Y5.8573
G01 X34.0971 Y5.9282
G01 X34.1025 Y5.9364
G01 X34.1490 Y6.0144
G01 X34.1877 Y6.0965
G01 X34.2176 Y6.1796
G01 X34.2204 Y6.1890
G01 X34.2417 Y6.2747
G01 X34.2554 Y6.3669
G01 X34.2599 Y6.4551
G01 X34.2599 Y6.4649
G01 X34.2552 Y6.5556
G01 X34.2417 Y6.6453
G01 X34.2204 Y6.7310
G01 X34.2176 Y6.7404
G01 X34.1877 Y6.8235
G01 X34.1478 Y6.9078
G01 X34.1025 Y6.9836
G01 X34.0971 Y6.9918
G01 X34.0474 Y7.0588
G01 X34.0412 Y7.0664
G01 X33.9818 Y7.1318
G01 X33.9164 Y7.1912
G01 X33.9088 Y7.1974
G01 X33.8418 Y7.2471
G01 X33.8336 Y7.2525
G01 X33.7578 Y7.2978
G01 X33.6735 Y7.3377
G01 X33.5858 Y7.3691
G01 X33.5001 Y7.3907
G01 X33.4905 Y7.3926
G01 X33.4080 Y7.4048
G01 X33.3982 Y7.4058
G01 X33.3100 Y7.4100
G01 X33.2218 Y7.4058
G01 X33.2120 Y7.4048
G01 X33.1247 Y7.3917
G01 X33.0342 Y7.3691
G01 X32.9465 Y7.3377
G01 X32.8622 Y7.2978
G01 X32.7822 Y7.2499
G01 X32.7073 Y7.1944
G01 X32.6382 Y7.1318
G01 X32.5788 Y7.0664
G01 X32.5726 Y7.0588
G01 X32.5229 Y6.9918
G01 X32.5175 Y6.9836
G01 X32.4722 Y6.9078
G01 X32.4343 Y6.8280
G01 X32.4314 Y6.8213
G01 X32.4009 Y6.7358
G01 X32.3783 Y6.6453
G01 X32.3646 Y6.5531
G01 X32.3601 Y6.4649
G01 X32.3601 Y6.4551
G01 X32.3642 Y6.3718
G01 X32.3652 Y6.3620
G01 X32.3783 Y6.2747
G01 X32.3996 Y6.1890
G01 X32.4016 Y6.1819
G01 X32.4323 Y6.0965
G01 X32.4722 Y6.0122
G01 X32.5201 Y5.9322
G01 X32.5741 Y5.8592
G01 X32.5788 Y5.8536
G01 X32.6382 Y5.7882
G01 X32.7054 Y5.7272
G01 X32.7112 Y5.7226
G01 X32.7802 Y5.6715
G01 X32.8098 Y5.6534
G00 Z5.0000
G00 X22.6199 Y14.1349
G01 F60.00
G01 Z0.0000
G01 F70.00
G01 X22.6198 Y5.2200
G01 X22.6222 Y5.1710
G01 X22.6299 Y5.1200
G01 X22.6413 Y5.0748
G01 X22.6561 Y5.0332
G01 X22.6599 Y5.0241
G01 X22.6789 Y4.9842
G01 X22.7015 Y4.9463
G01 X22.7069 Y4.9381
G01 X22.7333 Y4.9027
G01 X22.7646 Y4.8681
G01 X24.6681 Y2.9646
G01 X24.7027 Y2.9333
G01 X24.7421 Y2.9041
G01 X24.7842 Y2.8789
G01 X24.8286 Y2.8579
G01 X24.8748 Y2.8413
G01 X24.9224 Y2.8294
G01 X24.9710 Y2.8222
G01 X25.0200 Y2.8198
G01 X29.6400 Y2.8198
G01 X29.6890 Y2.8222
G01 X29.7327 Y2.8286
G01 X29.7424 Y2.8305
G01 X29.7852 Y2.8413
G01 X29.8268 Y2.8561
G01 X29.8359 Y2.8599
G01 X29.8758 Y2.8789
G01 X29.9137 Y2.9015
G01 X29.9219 Y2.9069
G01 X29.9573 Y2.9333
G01 X29.9919 Y2.9646
G01 X31.1237 Y4.0963
G01 X31.1567 Y4.1327
G01 X31.1831 Y4.1681
G01 X31.1885 Y4.1763
G01 X31.2123 Y4.2164
G01 X31.2321 Y4.2586
G01 X31.2471 Y4.3001
G01 X31.2500 Y4.3095
G01 X31.2606 Y4.3524
G01 X31.2672 Y4.3961
G01 X31.2682 Y4.4059
G01 X31.2701 Y4.4451
G01 X31.2702 Y5.6534
G01 X31.2998 Y5.6715
G01 X31.3708 Y5.7241
G01 X31.4382 Y5.7849
G01 X31.4435 Y5.7900
G01 X31.5044 Y5.8573
G01 X31.5571 Y5.9282
G01 X31.5625 Y5.9364
G01 X31.6066 Y6.0100
G01 X31.6100 Y6.0166
G01 X31.6477 Y6.0965
G01 X31.6776 Y6.1796
G01 X31.6804 Y6.1890
G01 X31.7017 Y6.2747
G01 X31.7148 Y6.3620
G01 X31.7158 Y6.3718
G01 X31.7200 Y6.4575
G01 X31.7158 Y6.5482
G01 X31.7148 Y6.5580
G01 X31.7017 Y6.6453
G01 X31.6791 Y6.7358
G01 X31.6495 Y6.8190
G01 X31.6457 Y6.8280
G01 X31.6078 Y6.9078
G01 X31.5599 Y6.9878
G01 X31.5074 Y7.0588
G01 X31.5012 Y7.0664
G01 X31.4418 Y7.1318
G01 X31.3727 Y7.1944
G01 X31.2978 Y7.2499
G01 X31.2221 Y7.2954
G01 X31.2134 Y7.3000
G01 X31.1380 Y7.3357
G01 X31.1290 Y7.3395
G01 X31.0458 Y7.3691
G01 X30.9553 Y7.3917
G01 X30.8631 Y7.4054
G01 X30.7749 Y7.4099
G01 X30.7651 Y7.4099
G01 X30.6818 Y7.4058
G01 X30.6720 Y7.4048
G01 X30.5847 Y7.3917
G01 X30.4990 Y7.3704
G01 X30.4896 Y7.3676
G01 X30.4110 Y7.3395
G01 X30.4020 Y7.3357
G01 X30.3222 Y7.2978
G01 X30.2422 Y7.2499
G01 X30.1712 Y7.1974
G01 X30.1636 Y7.1912
G01 X30.0982 Y7.1318
G01 X30.0372 Y7.0646
G01 X30.0326 Y7.0588
G01 X29.9801 Y6.9878
G01 X29.9322 Y6.9078
G01 X29.8923 Y6.8235
G01 X29.8609 Y6.7358
G01 X29.8383 Y6.6453
G01 X29.8246 Y6.5531
G01 X29.8200 Y6.4600
G01 X29.8246 Y6.3669
G01 X29.8383 Y6.2747
G01 X29.8596 Y6.1890
G01 X29.8624 Y6.1796
G01 X29.8923 Y6.0965
G01 X29.9300 Y6.0166
G01 X29.9346 Y6.0079
G01 X29.9788 Y5.9343
G01 X29.9829 Y5.9282
G01 X30.0356 Y5.8573
G01 X30.0949 Y5.7918
G01 X30.1000 Y5.7865
G01 X30.1636 Y5.7288
G01 X30.1692 Y5.7241
G01 X30.2402 Y5.6715
G01 X30.2693 Y5.6537
G01 X30.2698 Y4.6572
G01 X29.4328 Y3.8202
G01 X25.2272 Y3.8202
G01 X23.6202 Y5.4272
G01 X23.6202 Y13.9228
G01 X25.2572 Y15.5598
G01 X46.2928 Y15.5598
G01 X47.8673 Y13.9854
G01 X47.8543 Y13.8982
G01 X47.8501 Y13.8149
G01 X47.8501 Y13.8051
G01 X47.8540 Y13.7267
G01 X47.8549 Y13.7169
G01 X47.8673 Y13.6344
G01 X47.8888 Y13.5487
G01 X47.9185 Y13.4656
G01 X47.9541 Y13.3901
G01 X47.9587 Y13.3815
G01 X47.9991 Y13.3141
G01 X48.0045 Y13.3060
G01 X48.0543 Y13.2390
G01 X48.1136 Y13.1736
G01 X48.1790 Y13.1143
G01 X48.2460 Y13.0645
G01 X48.2541 Y13.0591
G01 X48.3257 Y13.0163
G01 X48.4011 Y12.9805
G01 X48.4102 Y12.9767
G01 X48.4887 Y12.9488
G01 X48.5696 Y12.9284
G01 X48.5793 Y12.9265
G01 X48.6618 Y12.9143
G01 X48.7451 Y12.9101
G01 X48.7549 Y12.9101
G01 X48.8382 Y12.9143
G01 X48.9207 Y12.9265
G01 X48.9304 Y12.9284
G01 X49.0113 Y12.9488
G01 X49.0898 Y12.9767
G01 X49.0989 Y12.9805
G01 X49.1743 Y13.0163
G01 X49.2459 Y13.0591
G01 X49.2540 Y13.0645
G01 X49.3210 Y13.1143
G01 X49.3828 Y13.1702
G01 X49.3898 Y13.1772
G01 X49.4457 Y13.2390
G01 X49.4955 Y13.3060
G01 X49.5009 Y13.3141
G01 X49.5437 Y13.3857
G01 X49.5795 Y13.4611
G01 X49.5833 Y13.4702
G01 X49.6112 Y13.5487
G01 X49.6316 Y13.6296
G01 X49.6335 Y13.6393
G01 X49.6457 Y13.7218
G01 X49.6500 Y13.8100
G01 X49.6457 Y13.8982
G01 X49.6327 Y13.9856
G01 X49.6112 Y14.0713
G01 X49.5833 Y14.1498
G01 X49.5795 Y14.1589
G01 X49.5459 Y14.2299
G01 X49.5413 Y14.2385
G01 X49.4983 Y14.3100
G01 X49.4487 Y14.3771
G01 X49.4425 Y14.3847
G01 X49.3864 Y14.4464
G01 X49.3228 Y14.5041
G01 X49.3171 Y14.5087
G01 X49.2500 Y14.5583
G01 X49.1743 Y14.6037
G01 X49.0944 Y14.6415
G01 X49.0159 Y14.6697
G01 X49.0065 Y14.6726
G01 X48.9304 Y14.6916
G01 X48.9207 Y14.6935
G01 X48.8382 Y14.7057
G01 X48.7549 Y14.7099
G01 X48.7451 Y14.7099
G01 X48.6618 Y14.7057
G01 X48.5746 Y14.6927
G01 X46.8537 Y16.4137
G01 X46.8210 Y16.4435
G01 X46.8135 Y16.4497
G01 X46.7779 Y16.4759
G01 X46.7401 Y16.4987
G01 X46.7314 Y16.5033
G01 X46.6959 Y16.5201
G01 X46.6868 Y16.5239
G01 X46.6452 Y16.5387
G01 X46.5976 Y16.5506
G01 X46.5490 Y16.5578
G01 X46.5000 Y16.5602
G01 X25.0500 Y16.5602
G01 X25.0010 Y16.5578
G01 X24.9524 Y16.5506
G01 X24.9095 Y16.5400
G01 X24.9001 Y16.5371
G01 X24.8632 Y16.5239
G01 X24.8541 Y16.5201
G01 X24.8142 Y16.5011
G01 X24.7721 Y16.4759
G01 X24.7327 Y16.4467
G01 X24.6999 Y16.4171
G01 X22.7663 Y14.4837
G01 X22.7333 Y14.4473
G01 X22.7041 Y14.4079
G01 X22.6789 Y14.3658
G01 X22.6579 Y14.3214
G01 X22.6413 Y14.2752
G01 X22.6294 Y14.2276
G01 X22.6222 Y14.1790
G01 X22.6199 Y14.1349
G00 Z5.0000
G00 X20.4998 Y28.0513
G01 F60.00
G01 Z0.0000
G01 F70.00
G01 X20.4998 Y25.7475
G01 X20.5022 Y25.7010
G01 X20.5086 Y25.6573
G01 X20.5105 Y25.6476
G01 X20.5213 Y25.6048
G01 X20.5361 Y25.5632
G01 X20.5399 Y25.5541
G01 X20.5567 Y25.5186
G01 X20.5613 Y25.5099
G01 X20.5815 Y25.4763
G01 X20.5869 Y25.4681
G01 X20.6133 Y25.4327
G01 X20.6463 Y25.3963
G01 X22.7063 Y23.3363
G01 X22.7427 Y23.3033
G01 X22.7821 Y23.2741
G01 X22.8199 Y23.2513
G01 X22.8286 Y23.2467
G01 X22.8686 Y23.2279
G01 X22.9148 Y23.2113
G01 X22.9576 Y23.2005
G01 X22.9673 Y23.1986
G01 X23.0110 Y23.1922
G01 X23.0575 Y23.1898
G01 X27.8971 Y23.1898
G01 X29.4815 Y21.6054
G01 X29.4686 Y21.5182
G01 X29.4644 Y21.4349
G01 X29.4644 Y21.4251
G01 X29.4686 Y21.3418
G01 X29.4816 Y21.2544
G01 X29.5017 Y21.1735
G01 X29.5046 Y21.1641
G01 X29.5328 Y21.0856
G01 X29.5683 Y21.0101
G01 X29.5730 Y21.0015
G01 X29.6160 Y20.9300
G01 X29.6686 Y20.8590
G01 X29.7245 Y20.7972
G01 X29.7314 Y20.7902
G01 X29.7933 Y20.7343
G01 X29.8622 Y20.6831
G01 X29.8684 Y20.6791
G01 X29.9400 Y20.6363
G01 X30.0199 Y20.5985
G01 X30.1030 Y20.5688
G01 X30.1887 Y20.5473
G01 X30.2761 Y20.5343
G01 X30.3643 Y20.5300
G01 X30.4525 Y20.5343
G01 X30.5399 Y20.5473
G01 X30.6255 Y20.5688
G01 X30.7087 Y20.5985
G01 X30.7885 Y20.6363
G01 X30.8643 Y20.6817
G01 X30.9352 Y20.7343
G01 X31.0007 Y20.7936
G01 X31.0600 Y20.8590
G01 X31.1126 Y20.9300
G01 X31.1580 Y21.0057
G01 X31.1938 Y21.0811
G01 X31.1975 Y21.0902
G01 X31.2240 Y21.1641
G01 X31.2268 Y21.1735
G01 X31.2470 Y21.2544
G01 X31.2600 Y21.3418
G01 X31.2643 Y21.4300
G01 X31.2603 Y21.5133
G01 X31.2594 Y21.5231
G01 X31.2478 Y21.6007
G01 X31.2459 Y21.6104
G01 X31.2255 Y21.6913
G01 X31.1958 Y21.7744
G01 X31.1580 Y21.8543
G01 X31.1152 Y21.9259
G01 X31.1098 Y21.9340
G01 X31.0584 Y22.0028
G01 X31.0007 Y22.0664
G01 X30.9390 Y22.1225
G01 X30.9314 Y22.1287
G01 X30.8643 Y22.1783
G01 X30.7928 Y22.2213
G01 X30.7842 Y22.2259
G01 X30.7087 Y22.2615
G01 X30.6302 Y22.2897
G01 X30.6208 Y22.2926
G01 X30.5399 Y22.3127
G01 X30.4574 Y22.3251
G01 X30.4476 Y22.3260
G01 X30.3643 Y22.3300
G01 X30.2810 Y22.3260
G01 X30.2712 Y22.3251
G01 X30.1889 Y22.3127
G01 X28.4562 Y24.0454
G01 X28.4216 Y24.0767
G01 X28.3822 Y24.1059
G01 X28.3401 Y24.1311
G01 X28.2957 Y24.1521
G01 X28.2495 Y24.1687
G01 X28.2019 Y24.1806
G01 X28.1533 Y24.1878
G01 X28.1043 Y24.1902
G01 X23.2672 Y24.1902
G01 X21.5002 Y25.9572
G01 X21.5002 Y28.0513
G01 X21.5411 Y28.0820
G01 X21.5993 Y28.1347
G01 X21.6555 Y28.1964
G01 X21.6601 Y28.2021
G01 X21.7067 Y28.2653
G01 X21.7472 Y28.3325
G01 X21.7508 Y28.3390
G01 X21.7833 Y28.4077
G01 X21.7871 Y28.4168
G01 X21.8134 Y28.4908
G01 X21.8326 Y28.5669
G01 X21.8345 Y28.5765
G01 X21.8459 Y28.6542
G01 X21.8500 Y28.7375
G01 X21.8463 Y28.8159
G01 X21.8453 Y28.8257
G01 X21.8337 Y28.9033
G01 X21.8147 Y28.9795
G01 X21.8119 Y28.9889
G01 X21.7853 Y29.0628
G01 X21.7496 Y29.1382
G01 X21.7094 Y29.2056
G01 X21.7039 Y29.2137
G01 X21.6571 Y29.2767
G01 X21.6044 Y29.3350
G01 X21.5975 Y29.3419
G01 X21.5392 Y29.3946
G01 X21.4722 Y29.4442
G01 X21.4007 Y29.4871
G01 X21.3253 Y29.5228
G01 X21.2467 Y29.5509
G01 X21.1658 Y29.5712
G01 X21.0833 Y29.5834
G01 X21.0000 Y29.5875
G01 X20.9167 Y29.5834
G01 X20.8342 Y29.5712
G01 X20.7533 Y29.5509
G01 X20.6747 Y29.5228
G01 X20.5993 Y29.4871
G01 X20.5278 Y29.4442
G01 X20.4608 Y29.3946
G01 X20.3990 Y29.3385
G01 X20.3429 Y29.2767
G01 X20.2946 Y29.2118
G01 X20.2906 Y29.2056
G01 X20.2504 Y29.1382
G01 X20.2147 Y29.0628
G01 X20.1866 Y28.9842
G01 X20.1663 Y28.9033
G01 X20.1541 Y28.8208
G01 X20.1500 Y28.7375
G01 X20.1541 Y28.6542
G01 X20.1659 Y28.5741
G01 X20.1674 Y28.5669
G01 X20.1866 Y28.4908
G01 X20.2147 Y28.4122
G01 X20.2504 Y28.3368
G01 X20.2919 Y28.2673
G01 X20.2961 Y28.2613
G01 X20.3429 Y28.1983
G01 X20.3972 Y28.1382
G01 X20.4589 Y28.0820
G01 X20.4998 Y28.0513
G00 Z5.0000
G00 X17.9598 Y28.0513
G01 F60.00
G01 Z0.0000
G01 F70.00
G01 X17.9598 Y24.7675
G01 X17.9622 Y24.7210
G01 X17.9686 Y24.6773
G01 X17.9705 Y24.6676
G01 X17.9813 Y24.6248
G01 X17.9961 Y24.5832
G01 X17.9999 Y24.5741
G01 X18.0177 Y24.5364
G01 X18.0415 Y24.4963
G01 X18.0469 Y24.4881
G01 X18.0733 Y24.4527
G01 X18.1063 Y24.4163
G01 X21.4463 Y21.0763
G01 X21.4827 Y21.0433
G01 X21.5201 Y21.0155
G01 X21.5599 Y20.9913
G01 X21.5686 Y20.9867
G01 X21.6086 Y20.9679
G01 X21.6548 Y20.9513
G01 X21.6976 Y20.9405
G01 X21.7073 Y20.9386
G01 X21.7510 Y20.9322
G01 X21.7975 Y20.9298
G01 X26.5518 Y20.9298
G01 X26.6013 Y20.8629
G01 X26.6075 Y20.8553
G01 X26.6636 Y20.7936
G01 X26.7253 Y20.7375
G01 X26.7329 Y20.7313
G01 X26.8000 Y20.6817
G01 X26.8757 Y20.6363
G01 X26.9556 Y20.5985
G01 X27.0341 Y20.5703
G01 X27.0435 Y20.5674
G01 X27.1244 Y20.5473
G01 X27.2069 Y20.5349
G01 X27.2167 Y20.5340
G01 X27.2975 Y20.5300
G01 X27.3049 Y20.5301
G01 X27.3882 Y20.5343
G01 X27.4707 Y20.5465
G01 X27.4804 Y20.5484
G01 X27.5613 Y20.5688
G01 X27.6398 Y20.5967
G01 X27.6489 Y20.6005
G01 X27.7243 Y20.6363
G01 X27.8000 Y20.6817
G01 X27.8671 Y20.7313
G01 X27.8747 Y20.7375
G01 X27.9364 Y20.7936
G01 X27.9925 Y20.8553
G01 X27.9987 Y20.8629
G01 X28.0469 Y20.9280
G01 X28.0509 Y20.9341
G01 X28.0937 Y21.0057
G01 X28.1295 Y21.0811
G01 X28.1333 Y21.0902
G01 X28.1612 Y21.1687
G01 X28.1816 Y21.2496
G01 X28.1835 Y21.2593
G01 X28.1957 Y21.3418
G01 X28.2000 Y21.4300
G01 X28.1960 Y21.5133
G01 X28.1951 Y21.5231
G01 X28.1827 Y21.6056
G01 X28.1626 Y21.6865
G01 X28.1597 Y21.6959
G01 X28.1315 Y21.7744
G01 X28.0937 Y21.8543
G01 X28.0509 Y21.9259
G01 X28.0455 Y21.9340
G01 X27.9957 Y22.0010
G01 X27.9398 Y22.0628
G01 X27.9328 Y22.0698
G01 X27.8710 Y22.1257
G01 X27.8040 Y22.1755
G01 X27.7959 Y22.1809
G01 X27.7243 Y22.2237
G01 X27.6489 Y22.2595
G01 X27.6398 Y22.2633
G01 X27.5613 Y22.2912
G01 X27.4804 Y22.3116
G01 X27.4732 Y22.3132
G01 X27.3882 Y22.3257
G01 X27.3049 Y22.3299
G01 X27.2951 Y22.3299
G01 X27.2118 Y22.3257
G01 X27.1293 Y22.3135
G01 X27.1196 Y22.3116
G01 X27.0387 Y22.2912
G01 X26.9556 Y22.2615
G01 X26.8757 Y22.2237
G01 X26.8041 Y22.1809
G01 X26.7960 Y22.1755
G01 X26.7290 Y22.1257
G01 X26.6672 Y22.0698
G01 X26.6602 Y22.0628
G01 X26.6043 Y22.0010
G01 X26.5518 Y21.9302
G01 X22.0072 Y21.9302
G01 X18.9602 Y24.9772
G01 X18.9602 Y28.0513
G01 X19.0011 Y28.0820
G01 X19.0593 Y28.1347
G01 X19.1155 Y28.1964
G01 X19.1201 Y28.2021
G01 X19.1667 Y28.2653
G01 X19.2072 Y28.3325
G01 X19.2108 Y28.3390
G01 X19.2433 Y28.4077
G01 X19.2471 Y28.4168
G01 X19.2734 Y28.4908
G01 X19.2926 Y28.5669
G01 X19.2945 Y28.5765
G01 X19.3059 Y28.6542
G01 X19.3100 Y28.7375
G01 X19.3063 Y28.8159
G01 X19.3053 Y28.8257
G01 X19.2937 Y28.9033
G01 X19.2747 Y28.9795
G01 X19.2719 Y28.9889
G01 X19.2453 Y29.0628
G01 X19.2096 Y29.1382
G01 X19.1667 Y29.2097
G01 X19.1201 Y29.2729
G01 X19.1139 Y29.2805
G01 X19.0610 Y29.3385
G01 X19.0030 Y29.3914
G01 X18.9954 Y29.3976
G01 X18.9343 Y29.4429
G01 X18.9281 Y29.4469
G01 X18.8607 Y29.4871
G01 X18.7853 Y29.5228
G01 X18.7067 Y29.5509
G01 X18.6258 Y29.5712
G01 X18.5433 Y29.5834
G01 X18.4600 Y29.5875
G01 X18.3767 Y29.5834
G01 X18.2942 Y29.5712
G01 X18.2133 Y29.5509
G01 X18.1347 Y29.5228
G01 X18.0593 Y29.4871
G01 X17.9878 Y29.4442
G01 X17.9208 Y29.3946
G01 X17.8590 Y29.3385
G01 X17.8029 Y29.2767
G01 X17.7546 Y29.2118
G01 X17.7506 Y29.2056
G01 X17.7104 Y29.1382
G01 X17.6747 Y29.0628
G01 X17.6466 Y28.9842
G01 X17.6263 Y28.9033
G01 X17.6141 Y28.8208
G01 X17.6100 Y28.7375
G01 X17.6141 Y28.6542
G01 X17.6259 Y28.5741
G01 X17.6274 Y28.5669
G01 X17.6466 Y28.4908
G01 X17.6747 Y28.4122
G01 X17.7104 Y28.3368
G01 X17.7519 Y28.2673
G01 X17.7561 Y28.2613
G01 X17.8029 Y28.1983
G01 X17.8572 Y28.1382
G01 X17.9189 Y28.0820
G01 X17.9598 Y28.0513
G00 Z5.0000
G00 X12.8499 Y29.3549
G01 F60.00
G01 Z0.0000
G01 F70.00
G01 X12.8498 Y21.0900
G01 X12.8522 Y21.0410
G01 X12.8594 Y20.9924
G01 X12.8713 Y20.9448
G01 X12.8888 Y20.8963
G01 X12.9089 Y20.8542
G01 X12.9341 Y20.8121
G01 X12.9633 Y20.7727
G01 X12.9963 Y20.7363
G01 X19.2098 Y14.5228
G01 X19.2098 Y7.4772
G01 X18.6928 Y6.9602
G01 X18.5066 Y6.9602
G01 X18.4885 Y6.9898
G01 X18.4374 Y7.0588
G01 X18.4328 Y7.0646
G01 X18.3718 Y7.1318
G01 X18.3064 Y7.1912
G01 X18.3008 Y7.1959
G01 X18.2278 Y7.2499
G01 X18.1478 Y7.2978
G01 X18.0635 Y7.3377
G01 X17.9804 Y7.3676
G01 X17.9734 Y7.3698
G01 X17.8853 Y7.3917
G01 X17.7931 Y7.4054
G01 X17.7000 Y7.4100
G01 X17.6118 Y7.4058
G01 X17.6020 Y7.4048
G01 X17.5195 Y7.3926
G01 X17.5099 Y7.3907
G01 X17.4242 Y7.3691
G01 X17.3387 Y7.3386
G01 X17.2566 Y7.3000
G01 X17.2479 Y7.2954
G01 X17.1722 Y7.2499
G01 X17.1012 Y7.1974
G01 X17.0936 Y7.1912
G01 X17.0282 Y7.1318
G01 X16.9688 Y7.0664
G01 X16.9626 Y7.0588
G01 X16.9101 Y6.9878
G01 X16.8646 Y6.9121
G01 X16.8600 Y6.9034
G01 X16.8223 Y6.8235
G01 X16.7924 Y6.7404
G01 X16.7896 Y6.7310
G01 X16.7683 Y6.6453
G01 X16.7552 Y6.5580
G01 X16.7542 Y6.5482
G01 X16.7500 Y6.4600
G01 X16.7542 Y6.3718
G01 X16.7552 Y6.3620
G01 X16.7674 Y6.2795
G01 X16.7693 Y6.2699
G01 X16.7909 Y6.1842
G01 X16.8205 Y6.1010
G01 X16.8243 Y6.0920
G01 X16.8622 Y6.0122
G01 X16.9101 Y5.9322
G01 X16.9656 Y5.8573
G01 X17.0249 Y5.7918
G01 X17.0318 Y5.7849
G01 X17.0973 Y5.7256
G01 X17.1682 Y5.6729
G01 X17.1764 Y5.6675
G01 X17.2479 Y5.6246
G01 X17.2566 Y5.6200
G01 X17.3365 Y5.5823
G01 X17.4242 Y5.5509
G01 X17.5147 Y5.5283
G01 X17.6020 Y5.5152
G01 X17.6118 Y5.5142
G01 X17.7000 Y5.5100
G01 X17.7882 Y5.5142
G01 X17.7980 Y5.5152
G01 X17.8853 Y5.5283
G01 X17.9758 Y5.5509
G01 X18.0635 Y5.5823
G01 X18.1478 Y5.6222
G01 X18.2236 Y5.6675
G01 X18.2298 Y5.6715
G01 X18.3027 Y5.7256
G01 X18.3682 Y5.7849
G01 X18.3735 Y5.7900
G01 X18.4312 Y5.8536
G01 X18.4359 Y5.8592
G01 X18.4885 Y5.9302
G01 X18.5063 Y5.9594
G01 X18.9001 Y5.9598
G01 X18.9515 Y5.9625
G01 X18.9927 Y5.9686
G01 X19.0024 Y5.9705
G01 X19.0452 Y5.9813
G01 X19.0868 Y5.9961
G01 X19.0959 Y5.9999
G01 X19.1358 Y6.0189
G01 X19.1799 Y6.0455
G01 X19.2173 Y6.0733
G01 X19.2537 Y6.1063
G01 X20.0671 Y6.9199
G01 X20.0967 Y6.9527
G01 X20.1231 Y6.9881
G01 X20.1285 Y6.9963
G01 X20.1511 Y7.0342
G01 X20.1701 Y7.0741
G01 X20.1739 Y7.0832
G01 X20.1887 Y7.1248
G01 X20.1995 Y7.1676
G01 X20.2014 Y7.1773
G01 X20.2078 Y7.2210
G01 X20.2102 Y7.2700
G01 X20.2102 Y14.7300
G01 X20.2078 Y14.7790
G01 X20.2010 Y14.8252
G01 X20.1900 Y14.8705
G01 X20.1871 Y14.8799
G01 X20.1721 Y14.9214
G01 X20.1511 Y14.9658
G01 X20.1259 Y15.0079
G01 X20.0997 Y15.0435
G01 X20.0935 Y15.0510
G01 X20.0637 Y15.0837
G01 X13.8502 Y21.2972
G01 X13.8502 Y29.1428
G01 X14.9272 Y30.2198
G01 X21.3503 Y30.2198
G01 X22.7011 Y28.8690
G01 X22.6939 Y28.8184
G01 X22.6900 Y28.7350
G01 X22.6941 Y28.6542
G01 X22.7059 Y28.5741
G01 X22.7074 Y28.5669
G01 X22.7266 Y28.4908
G01 X22.7529 Y28.4168
G01 X22.7567 Y28.4077
G01 X22.7916 Y28.3347
G01 X22.8333 Y28.2653
G01 X22.8799 Y28.2021
G01 X22.8861 Y28.1945
G01 X22.9356 Y28.1400
G01 X22.9425 Y28.1331
G01 X23.0008 Y28.0804
G01 X23.0678 Y28.0308
G01 X23.1393 Y27.9879
G01 X23.2125 Y27.9532
G01 X23.2886 Y27.9256
G01 X23.2980 Y27.9228
G01 X23.3742 Y27.9038
G01 X23.4518 Y27.8922
G01 X23.4616 Y27.8912
G01 X23.5400 Y27.8875
G01 X23.6184 Y27.8912
G01 X23.6282 Y27.8922
G01 X23.7058 Y27.9038
G01 X23.7820 Y27.9228
G01 X23.7914 Y27.9256
G01 X23.8653 Y27.9522
G01 X23.9407 Y27.9879
G01 X24.0081 Y28.0281
G01 X24.0162 Y28.0336
G01 X24.0792 Y28.0804
G01 X24.1375 Y28.1331
G01 X24.1444 Y28.1400
G01 X24.1971 Y28.1983
G01 X24.2439 Y28.2613
G01 X24.2494 Y28.2694
G01 X24.2896 Y28.3368
G01 X24.3233 Y28.4077
G01 X24.3271 Y28.4168
G01 X24.3534 Y28.4908
G01 X24.3726 Y28.5669
G01 X24.3745 Y28.5765
G01 X24.3859 Y28.6542
G01 X24.3899 Y28.7326
G01 X24.3899 Y28.7424
G01 X24.3859 Y28.8208
G01 X24.3737 Y28.9033
G01 X24.3534 Y28.9842
G01 X24.3271 Y29.0582
G01 X24.3233 Y29.0673
G01 X24.2918 Y29.1338
G01 X24.2872 Y29.1425
G01 X24.2467 Y29.2097
G01 X24.1971 Y29.2767
G01 X24.1410 Y29.3385
G01 X24.0792 Y29.3946
G01 X24.0122 Y29.4442
G01 X23.9407 Y29.4871
G01 X23.8653 Y29.5228
G01 X23.7914 Y29.5494
G01 X23.7844 Y29.5516
G01 X23.7058 Y29.5712
G01 X23.6282 Y29.5828
G01 X23.6209 Y29.5836
G01 X23.5375 Y29.5875
G01 X23.4591 Y29.5836
G01 X23.4085 Y29.5764
G01 X21.9112 Y31.0737
G01 X21.8785 Y31.1035
G01 X21.8710 Y31.1097
G01 X21.8354 Y31.1359
G01 X21.7976 Y31.1587
G01 X21.7889 Y31.1633
G01 X21.7534 Y31.1801
G01 X21.7443 Y31.1839
G01 X21.7027 Y31.1987
G01 X21.6551 Y31.2106
G01 X21.6065 Y31.2178
G01 X21.5624 Y31.2201
G01 X14.7200 Y31.2202
G01 X14.6710 Y31.2178
G01 X14.6200 Y31.2101
G01 X14.5748 Y31.1987
G01 X14.5332 Y31.1839
G01 X14.5241 Y31.1801
G01 X14.4842 Y31.1611
G01 X14.4463 Y31.1385
G01 X14.4381 Y31.1331
G01 X14.4027 Y31.1067
G01 X14.3699 Y31.0771
G01 X12.9946 Y29.7019
G01 X12.9633 Y29.6673
G01 X12.9341 Y29.6279
G01 X12.9089 Y29.5858
G01 X12.8879 Y29.5414
G01 X12.8713 Y29.4952
G01 X12.8594 Y29.4476
G01 X12.8522 Y29.3990
G01 X12.8499 Y29.3549
G00 Z5.0000
G00 X10.9199 Y30.4849
G01 F60.00
G01 Z0.0000
G01 F70.00
G01 X10.9198 Y19.3900
G01 X10.9218 Y19.3459
G01 X10.9228 Y19.3361
G01 X10.9294 Y19.2924
G01 X10.9413 Y19.2448
G01 X10.9561 Y19.2032
G01 X10.9599 Y19.1941
G01 X10.9789 Y19.1542
G01 X11.0015 Y19.1163
G01 X11.0069 Y19.1081
G01 X11.0333 Y19.0727
G01 X11.0663 Y19.0363
G01 X17.1998 Y12.9028
G01 X17.1998 Y9.8066
G01 X17.1702 Y9.7885
G01 X17.1012 Y9.7374
G01 X17.0954 Y9.7328
G01 X17.0282 Y9.6718
G01 X16.9672 Y9.6046
G01 X16.9129 Y9.5318
G01 X16.9075 Y9.5236
G01 X16.8622 Y9.4478
G01 X16.8233 Y9.3658
G01 X16.7924 Y9.2804
G01 X16.7896 Y9.2710
G01 X16.7683 Y9.1853
G01 X16.7546 Y9.0931
G01 X16.7501 Y9.0049
G01 X16.7501 Y8.9951
G01 X16.7546 Y8.9069
G01 X16.7678 Y8.8171
G01 X16.7693 Y8.8099
G01 X16.7909 Y8.7242
G01 X16.8223 Y8.6365
G01 X16.8622 Y8.5522
G01 X16.9101 Y8.4722
G01 X16.9656 Y8.3973
G01 X17.0282 Y8.3282
G01 X17.0973 Y8.2656
G01 X17.1682 Y8.2129
G01 X17.1764 Y8.2075
G01 X17.2479 Y8.1646
G01 X17.2566 Y8.1600
G01 X17.3365 Y8.1223
G01 X17.4196 Y8.0924
G01 X17.4290 Y8.0896
G01 X17.5147 Y8.0683
G01 X17.6020 Y8.0552
G01 X17.6118 Y8.0542
G01 X17.7000 Y8.0500
G01 X17.7931 Y8.0546
G01 X17.8853 Y8.0683
G01 X17.9758 Y8.0909
G01 X18.0590 Y8.1205
G01 X18.0680 Y8.1243
G01 X18.1478 Y8.1622
G01 X18.2278 Y8.2101
G01 X18.3027 Y8.2656
G01 X18.3682 Y8.3249
G01 X18.3751 Y8.3318
G01 X18.4312 Y8.3936
G01 X18.4374 Y8.4012
G01 X18.4899 Y8.4722
G01 X18.5378 Y8.5522
G01 X18.5777 Y8.6365
G01 X18.6076 Y8.7196
G01 X18.6104 Y8.7290
G01 X18.6307 Y8.8099
G01 X18.6326 Y8.8195
G01 X18.6454 Y8.9069
G01 X18.6500 Y8.9975
G01 X18.6458 Y9.0882
G01 X18.6448 Y9.0980
G01 X18.6317 Y9.1853
G01 X18.6104 Y9.2710
G01 X18.6076 Y9.2804
G01 X18.5777 Y9.3635
G01 X18.5400 Y9.4434
G01 X18.5366 Y9.4500
G01 X18.4899 Y9.5278
G01 X18.4374 Y9.5988
G01 X18.4312 Y9.6064
G01 X18.3735 Y9.6700
G01 X18.3682 Y9.6751
G01 X18.3008 Y9.7359
G01 X18.2298 Y9.7885
G01 X18.2007 Y9.8063
G01 X18.2002 Y13.1125
G01 X18.1982 Y13.1541
G01 X18.1972 Y13.1639
G01 X18.1906 Y13.2076
G01 X18.1800 Y13.2505
G01 X18.1771 Y13.2599
G01 X18.1621 Y13.3014
G01 X18.1411 Y13.3458
G01 X18.1159 Y13.3879
G01 X18.0897 Y13.4235
G01 X18.0835 Y13.4310
G01 X18.0537 Y13.4637
G01 X11.9202 Y19.5972
G01 X11.9202 Y30.2728
G01 X13.6572 Y32.0098
G01 X23.1428 Y32.0098
G01 X25.5798 Y29.5728
G01 X25.5798 Y29.4237
G01 X25.5389 Y29.3930
G01 X25.4807 Y29.3403
G01 X25.4756 Y29.3350
G01 X25.4214 Y29.2748
G01 X25.3733 Y29.2097
G01 X25.3328 Y29.1425
G01 X25.3282 Y29.1338
G01 X25.2947 Y29.0628
G01 X25.2666 Y28.9842
G01 X25.2463 Y28.9033
G01 X25.2341 Y28.8208
G01 X25.2300 Y28.7400
G01 X25.2301 Y28.7326
G01 X25.2341 Y28.6542
G01 X25.2463 Y28.5717
G01 X25.2666 Y28.4908
G01 X25.2929 Y28.4168
G01 X25.2967 Y28.4077
G01 X25.3282 Y28.3412
G01 X25.3328 Y28.3325
G01 X25.3733 Y28.2653
G01 X25.4199 Y28.2021
G01 X25.4261 Y28.1945
G01 X25.4790 Y28.1365
G01 X25.5408 Y28.0804
G01 X25.6038 Y28.0336
G01 X25.6119 Y28.0281
G01 X25.6793 Y27.9879
G01 X25.7547 Y27.9522
G01 X25.8333 Y27.9241
G01 X25.9094 Y27.9049
G01 X25.9190 Y27.9030
G01 X25.9918 Y27.8922
G01 X26.0016 Y27.8912
G01 X26.0800 Y27.8875
G01 X26.1633 Y27.8916
G01 X26.2458 Y27.9038
G01 X26.3220 Y27.9228
G01 X26.3314 Y27.9256
G01 X26.4007 Y27.9504
G01 X26.4098 Y27.9542
G01 X26.4807 Y27.9879
G01 X26.5522 Y28.0308
G01 X26.6192 Y28.0804
G01 X26.6775 Y28.1331
G01 X26.6844 Y28.1400
G01 X26.7371 Y28.1983
G01 X26.7867 Y28.2653
G01 X26.8272 Y28.3325
G01 X26.8318 Y28.3412
G01 X26.8633 Y28.4077
G01 X26.8671 Y28.4168
G01 X26.8934 Y28.4908
G01 X26.9137 Y28.5717
G01 X26.9259 Y28.6542
G01 X26.9299 Y28.7326
G01 X26.9299 Y28.7424
G01 X26.9263 Y28.8159
G01 X26.9253 Y28.8257
G01 X26.9137 Y28.9033
G01 X26.8934 Y28.9842
G01 X26.8653 Y29.0628
G01 X26.8318 Y29.1338
G01 X26.8272 Y29.1425
G01 X26.7854 Y29.2118
G01 X26.7371 Y29.2767
G01 X26.6828 Y29.3368
G01 X26.6211 Y29.3930
G01 X26.5802 Y29.4237
G01 X26.5802 Y29.7825
G01 X26.5778 Y29.8290
G01 X26.5710 Y29.8752
G01 X26.5600 Y29.9205
G01 X26.5571 Y29.9299
G01 X26.5421 Y29.9714
G01 X26.5233 Y30.0114
G01 X26.5187 Y30.0201
G01 X26.4959 Y30.0579
G01 X26.4651 Y30.0992
G01 X26.4337 Y30.1337
G01 X23.7019 Y32.8654
G01 X23.6673 Y32.8967
G01 X23.6279 Y32.9259
G01 X23.5858 Y32.9511
G01 X23.5459 Y32.9701
G01 X23.5368 Y32.9739
G01 X23.4999 Y32.9871
G01 X23.4905 Y32.9900
G01 X23.4476 Y33.0006
G01 X23.3990 Y33.0078
G01 X23.3500 Y33.0102
G01 X13.4500 Y33.0102
G01 X13.4010 Y33.0078
G01 X13.3524 Y33.0006
G01 X13.3095 Y32.9900
G01 X13.3001 Y32.9871
G01 X13.2586 Y32.9721
G01 X13.2142 Y32.9511
G01 X13.1763 Y32.9285
G01 X13.1681 Y32.9231
G01 X13.1327 Y32.8967
G01 X13.0981 Y32.8654
G01 X11.0646 Y30.8319
G01 X11.0333 Y30.7973
G01 X11.0041 Y30.7579
G01 X10.9789 Y30.7158
G01 X10.9579 Y30.6714
G01 X10.9413 Y30.6252
G01 X10.9294 Y30.5776
G01 X10.9222 Y30.5290
G01 X10.9199 Y30.4849
G00 Z5.0000
G00 X8.9599 Y40.8549
G01 F60.00
G01 Z0.0000
G01 F70.00
G01 X8.9598 Y17.5500
G01 X8.9622 Y17.5010
G01 X8.9694 Y17.4524
G01 X8.9813 Y17.4048
G01 X8.9961 Y17.3632
G01 X8.9999 Y17.3541
G01 X9.0189 Y17.3142
G01 X9.0441 Y17.2721
G01 X9.0703 Y17.2365
G01 X9.0765 Y17.2290
G01 X9.1063 Y17.1963
G01 X14.6598 Y11.6428
G01 X14.6598 Y9.8066
G01 X14.6302 Y9.7885
G01 X14.5612 Y9.7374
G01 X14.5554 Y9.7328
G01 X14.4882 Y9.6718
G01 X14.4272 Y9.6046
G01 X14.3729 Y9.5318
G01 X14.3675 Y9.5236
G01 X14.3222 Y9.4478
G01 X14.2833 Y9.3658
G01 X14.2524 Y9.2804
G01 X14.2496 Y9.2710
G01 X14.2283 Y9.1853
G01 X14.2146 Y9.0931
G01 X14.2100 Y9.0000
G01 X14.2142 Y8.9118
G01 X14.2152 Y8.9020
G01 X14.2283 Y8.8147
G01 X14.2509 Y8.7242
G01 X14.2823 Y8.6365
G01 X14.3222 Y8.5522
G01 X14.3701 Y8.4722
G01 X14.4256 Y8.3973
G01 X14.4882 Y8.3282
G01 X14.5573 Y8.2656
G01 X14.6322 Y8.2101
G01 X14.7122 Y8.1622
G01 X14.7965 Y8.1223
G01 X14.8842 Y8.0909
G01 X14.9747 Y8.0683
G01 X15.0669 Y8.0546
G01 X15.1600 Y8.0500
G01 X15.2531 Y8.0546
G01 X15.3453 Y8.0683
G01 X15.4358 Y8.0909
G01 X15.5190 Y8.1205
G01 X15.5280 Y8.1243
G01 X15.6034 Y8.1600
G01 X15.6121 Y8.1646
G01 X15.6878 Y8.2101
G01 X15.7627 Y8.2656
G01 X15.8318 Y8.3282
G01 X15.8912 Y8.3936
G01 X15.8974 Y8.4012
G01 X15.9471 Y8.4682
G01 X15.9525 Y8.4764
G01 X15.9978 Y8.5522
G01 X16.0377 Y8.6365
G01 X16.0691 Y8.7242
G01 X16.0907 Y8.8099
G01 X16.0926 Y8.8195
G01 X16.1056 Y8.9093
G01 X16.1100 Y9.0000
G01 X16.1058 Y9.0882
G01 X16.1048 Y9.0980
G01 X16.0917 Y9.1853
G01 X16.0704 Y9.2710
G01 X16.0676 Y9.2804
G01 X16.0377 Y9.3635
G01 X15.9990 Y9.4456
G01 X15.9525 Y9.5236
G01 X15.9471 Y9.5318
G01 X15.8944 Y9.6027
G01 X15.8335 Y9.6700
G01 X15.8282 Y9.6751
G01 X15.7608 Y9.7359
G01 X15.6898 Y9.7885
G01 X15.6607 Y9.8063
G01 X15.6602 Y11.8525
G01 X15.6582 Y11.8941
G01 X15.6572 Y11.9039
G01 X15.6506 Y11.9476
G01 X15.6400 Y11.9905
G01 X15.6371 Y11.9999
G01 X15.6221 Y12.0414
G01 X15.6000 Y12.0879
G01 X15.5759 Y12.1279
G01 X15.5497 Y12.1635
G01 X15.5435 Y12.1710
G01 X15.5137 Y12.2037
G01 X9.9602 Y17.7572
G01 X9.9602 Y40.6428
G01 X14.7872 Y45.4698
G01 X26.4203 Y45.4698
G01 X27.7811 Y44.1090
G01 X27.7739 Y44.0584
G01 X27.7700 Y43.9800
G01 X27.7739 Y43.8966
G01 X27.7747 Y43.8893
G01 X27.7863 Y43.8117
G01 X27.8059 Y43.7331
G01 X27.8081 Y43.7261
G01 X27.8347 Y43.6522
G01 X27.8704 Y43.5768
G01 X27.9133 Y43.5053
G01 X27.9599 Y43.4421
G01 X27.9661 Y43.4345
G01 X28.0190 Y43.3765
G01 X28.0808 Y43.3204
G01 X28.1478 Y43.2708
G01 X28.2193 Y43.2279
G01 X28.2947 Y43.1922
G01 X28.3733 Y43.1641
G01 X28.4542 Y43.1438
G01 X28.5367 Y43.1316
G01 X28.6200 Y43.1275
G01 X28.6984 Y43.1312
G01 X28.7082 Y43.1322
G01 X28.7810 Y43.1430
G01 X28.7906 Y43.1449
G01 X28.8667 Y43.1641
G01 X28.9407 Y43.1904
G01 X28.9498 Y43.1942
G01 X29.0207 Y43.2279
G01 X29.0922 Y43.2708
G01 X29.1592 Y43.3204
G01 X29.2175 Y43.3731
G01 X29.2244 Y43.3800
G01 X29.2771 Y43.4383
G01 X29.3239 Y43.5013
G01 X29.3294 Y43.5094
G01 X29.3672 Y43.5725
G01 X29.3718 Y43.5812
G01 X29.4053 Y43.6522
G01 X29.4334 Y43.7308
G01 X29.4537 Y43.8117
G01 X29.4653 Y43.8893
G01 X29.4663 Y43.8991
G01 X29.4700 Y43.9775
G01 X29.4663 Y44.0559
G01 X29.4653 Y44.0657
G01 X29.4537 Y44.1433
G01 X29.4334 Y44.2242
G01 X29.4071 Y44.2982
G01 X29.4033 Y44.3073
G01 X29.3718 Y44.3738
G01 X29.3672 Y44.3825
G01 X29.3267 Y44.4497
G01 X29.2771 Y44.5167
G01 X29.2210 Y44.5785
G01 X29.1611 Y44.6330
G01 X29.1554 Y44.6376
G01 X29.0922 Y44.6842
G01 X29.0207 Y44.7271
G01 X28.9453 Y44.7628
G01 X28.8714 Y44.7894
G01 X28.8644 Y44.7916
G01 X28.7858 Y44.8112
G01 X28.7082 Y44.8228
G01 X28.7009 Y44.8236
G01 X28.6175 Y44.8275
G01 X28.5391 Y44.8236
G01 X28.4885 Y44.8164
G01 X26.9794 Y46.3254
G01 X26.9448 Y46.3567
G01 X26.9094 Y46.3831
G01 X26.9012 Y46.3885
G01 X26.8633 Y46.4111
G01 X26.8189 Y46.4321
G01 X26.7774 Y46.4471
G01 X26.7680 Y46.4500
G01 X26.7299 Y46.4595
G01 X26.7202 Y46.4614
G01 X26.6765 Y46.4678
G01 X26.6275 Y46.4702
G01 X14.5800 Y46.4702
G01 X14.5310 Y46.4678
G01 X14.4873 Y46.4614
G01 X14.4776 Y46.4595
G01 X14.4395 Y46.4500
G01 X14.4301 Y46.4471
G01 X14.3886 Y46.4321
G01 X14.3442 Y46.4111
G01 X14.3021 Y46.3859
G01 X14.2665 Y46.3597
G01 X14.2590 Y46.3535
G01 X14.2263 Y46.3237
G01 X9.1063 Y41.2037
G01 X9.0733 Y41.1673
G01 X9.0441 Y41.1279
G01 X9.0189 Y41.0858
G01 X8.9979 Y41.0414
G01 X8.9813 Y40.9952
G01 X8.9694 Y40.9476
G01 X8.9622 Y40.8990
G01 X8.9599 Y40.8549
G00 Z5.0000
G00 X15.1700 Y44.8275
G01 F60.00
G01 Z0.0000
G01 F70.00
G01 X15.1602 Y44.8270
G01 X15.1505 Y44.8256
G01 X15.1410 Y44.8232
G01 X15.1317 Y44.8199
G01 X15.1229 Y44.8157
G01 X15.1144 Y44.8106
G01 X15.1085 Y44.8063
G01 X15.1010 Y44.7999
G01 X15.0943 Y44.7928
G01 X15.0897 Y44.7871
G01 X15.0842 Y44.7789
G01 X15.0796 Y44.7703
G01 X15.0758 Y44.7612
G01 X15.0730 Y44.7518
G01 X15.0711 Y44.7422
G01 X15.0701 Y44.7324
G01 X15.0700 Y43.2250
G01 X15.0705 Y43.2177
G01 X15.0719 Y43.2080
G01 X15.0743 Y43.1985
G01 X15.0776 Y43.1892
G01 X15.0807 Y43.1825
G01 X15.0855 Y43.1740
G01 X15.0897 Y43.1679
G01 X15.0959 Y43.1603
G01 X15.1028 Y43.1534
G01 X15.1104 Y43.1472
G01 X15.1186 Y43.1417
G01 X15.1272 Y43.1371
G01 X15.1386 Y43.1325
G01 X15.1481 Y43.1299
G01 X15.1578 Y43.1283
G01 X15.1675 Y43.1275
G01 X16.0751 Y43.1275
G01 X35.9927 Y23.2100
G01 X35.9927 Y22.1782
G01 X35.9219 Y22.1257
G01 X35.8600 Y22.0698
G01 X35.8531 Y22.0628
G01 X35.7971 Y22.0010
G01 X35.7474 Y21.9340
G01 X35.7419 Y21.9259
G01 X35.7015 Y21.8585
G01 X35.6969 Y21.8499
G01 X35.6614 Y21.7744
G01 X35.6316 Y21.6913
G01 X35.6101 Y21.6056
G01 X35.5978 Y21.5231
G01 X35.5968 Y21.5133
G01 X35.5929 Y21.4300
G01 X35.5968 Y21.3467
G01 X35.5978 Y21.3369
G01 X35.6101 Y21.2544
G01 X35.6303 Y21.1735
G01 X35.6331 Y21.1641
G01 X35.6596 Y21.0902
G01 X35.6634 Y21.0811
G01 X35.6991 Y21.0057
G01 X35.7445 Y20.9300
G01 X35.7971 Y20.8590
G01 X35.8565 Y20.7936
G01 X35.9219 Y20.7343
G01 X35.9928 Y20.6817
G01 X36.0686 Y20.6363
G01 X36.1484 Y20.5985
G01 X36.2316 Y20.5688
G01 X36.3173 Y20.5473
G01 X36.4046 Y20.5343
G01 X36.4929 Y20.5300
G01 X36.5811 Y20.5343
G01 X36.6684 Y20.5473
G01 X36.7541 Y20.5688
G01 X36.8373 Y20.5985
G01 X36.9171 Y20.6363
G01 X36.9929 Y20.6817
G01 X37.0638 Y20.7343
G01 X37.1257 Y20.7902
G01 X37.1326 Y20.7972
G01 X37.1886 Y20.8590
G01 X37.2412 Y20.9300
G01 X37.2866 Y21.0057
G01 X37.3224 Y21.0811
G01 X37.3261 Y21.0902
G01 X37.3541 Y21.1687
G01 X37.3745 Y21.2496
G01 X37.3764 Y21.2593
G01 X37.3879 Y21.3369
G01 X37.3889 Y21.3467
G01 X37.3929 Y21.4300
G01 X37.3885 Y21.5182
G01 X37.3756 Y21.6056
G01 X37.3541 Y21.6913
G01 X37.3243 Y21.7744
G01 X37.2888 Y21.8499
G01 X37.2842 Y21.8585
G01 X37.2412 Y21.9300
G01 X37.1916 Y21.9971
G01 X37.1854 Y22.0047
G01 X37.1326 Y22.0628
G01 X37.1257 Y22.0698
G01 X37.0638 Y22.1257
G01 X36.9931 Y22.1782
G01 X36.9931 Y23.4171
G01 X36.9906 Y23.4662
G01 X36.9834 Y23.5147
G01 X36.9728 Y23.5576
G01 X36.9700 Y23.5670
G01 X36.9567 Y23.6040
G01 X36.9530 Y23.6131
G01 X36.9340 Y23.6529
G01 X36.9088 Y23.6950
G01 X36.8795 Y23.7345
G01 X36.8499 Y23.7673
G01 X16.7700 Y43.8474
G01 X16.7700 Y44.7300
G01 X16.7692 Y44.7397
G01 X16.7676 Y44.7494
G01 X16.7650 Y44.7589
G01 X16.7614 Y44.7680
G01 X16.7570 Y44.7768
G01 X16.7518 Y44.7851
G01 X16.7457 Y44.7928
G01 X16.7390 Y44.7999
G01 X16.7315 Y44.8063
G01 X16.7235 Y44.8120
G01 X16.7171 Y44.8157
G01 X16.7083 Y44.8199
G01 X16.7014 Y44.8225
G01 X16.6919 Y44.8251
G01 X16.6822 Y44.8267
G01 X16.6725 Y44.8275
G01 X15.1700 Y44.8275
G00 Z5.0000
G00 X18.1393 Y44.7646
G01 F60.00
G01 Z0.0000
G01 F70.00
G01 X18.1302 Y44.7608
G01 X18.0593 Y44.7271
G01 X17.9919 Y44.6869
G01 X17.9838 Y44.6814
G01 X17.9208 Y44.6346
G01 X17.8625 Y44.5819
G01 X17.8556 Y44.5750
G01 X17.8029 Y44.5167
G01 X17.7561 Y44.4537
G01 X17.7506 Y44.4456
G01 X17.7104 Y44.3782
G01 X17.6767 Y44.3073
G01 X17.6729 Y44.2982
G01 X17.6466 Y44.2242
G01 X17.6263 Y44.1433
G01 X17.6141 Y44.0608
G01 X17.6101 Y43.9824
G01 X17.6101 Y43.9726
G01 X17.6141 Y43.8942
G01 X17.6255 Y43.8165
G01 X17.6274 Y43.8069
G01 X17.6466 Y43.7308
G01 X17.6747 Y43.6522
G01 X17.7082 Y43.5812
G01 X17.7128 Y43.5725
G01 X17.7533 Y43.5053
G01 X17.7999 Y43.4421
G01 X17.8061 Y43.4345
G01 X17.8556 Y43.3800
G01 X17.8625 Y43.3731
G01 X17.9208 Y43.3204
G01 X17.9838 Y43.2736
G01 X17.9919 Y43.2681
G01 X18.0593 Y43.2279
G01 X18.1302 Y43.1942
G01 X18.1393 Y43.1904
G01 X18.2109 Y43.1648
G01 X18.2180 Y43.1628
G01 X18.2942 Y43.1438
G01 X18.3718 Y43.1322
G01 X18.3791 Y43.1314
G01 X18.4625 Y43.1275
G01 X18.5409 Y43.1314
G01 X18.5915 Y43.1386
G01 X39.0498 Y22.6803
G01 X39.0498 Y22.1730
G01 X38.9862 Y22.1257
G01 X38.9243 Y22.0698
G01 X38.9174 Y22.0628
G01 X38.8646 Y22.0047
G01 X38.8584 Y21.9971
G01 X38.8088 Y21.9300
G01 X38.7658 Y21.8585
G01 X38.7612 Y21.8499
G01 X38.7256 Y21.7744
G01 X38.6959 Y21.6913
G01 X38.6744 Y21.6056
G01 X38.6621 Y21.5231
G01 X38.6613 Y21.5158
G01 X38.6571 Y21.4300
G01 X38.6611 Y21.3467
G01 X38.6621 Y21.3369
G01 X38.6744 Y21.2544
G01 X38.6946 Y21.1735
G01 X38.6974 Y21.1641
G01 X38.7239 Y21.0902
G01 X38.7276 Y21.0811
G01 X38.7634 Y21.0057
G01 X38.8088 Y20.9300
G01 X38.8614 Y20.8590
G01 X38.9207 Y20.7936
G01 X38.9862 Y20.7343
G01 X39.0571 Y20.6817
G01 X39.1329 Y20.6363
G01 X39.2127 Y20.5985
G01 X39.2959 Y20.5688
G01 X39.3816 Y20.5473
G01 X39.4689 Y20.5343
G01 X39.5571 Y20.5300
G01 X39.6454 Y20.5343
G01 X39.7327 Y20.5473
G01 X39.8184 Y20.5688
G01 X39.9016 Y20.5985
G01 X39.9814 Y20.6363
G01 X40.0572 Y20.6817
G01 X40.1281 Y20.7343
G01 X40.1900 Y20.7902
G01 X40.1969 Y20.7972
G01 X40.2528 Y20.8590
G01 X40.3055 Y20.9300
G01 X40.3509 Y21.0057
G01 X40.3866 Y21.0811
G01 X40.3904 Y21.0902
G01 X40.4184 Y21.1687
G01 X40.4388 Y21.2496
G01 X40.4407 Y21.2593
G01 X40.4522 Y21.3369
G01 X40.4532 Y21.3467
G01 X40.4571 Y21.4300
G01 X40.4532 Y21.5133
G01 X40.4525 Y21.5207
G01 X40.4398 Y21.6056
G01 X40.4197 Y21.6865
G01 X40.4168 Y21.6959
G01 X40.3904 Y21.7698
G01 X40.3866 Y21.7789
G01 X40.3509 Y21.8543
G01 X40.3081 Y21.9259
G01 X40.3026 Y21.9340
G01 X40.2528 Y22.0010
G01 X40.1935 Y22.0664
G01 X40.1281 Y22.1257
G01 X40.0612 Y22.1755
G01 X40.0502 Y22.1826
G01 X40.0502 Y22.8875
G01 X40.0475 Y22.9390
G01 X40.0406 Y22.9851
G01 X40.0300 Y23.0280
G01 X40.0271 Y23.0374
G01 X40.0139 Y23.0743
G01 X40.0101 Y23.0834
G01 X39.9911 Y23.1233
G01 X39.9659 Y23.1654
G01 X39.9367 Y23.2048
G01 X39.9071 Y23.2376
G01 X19.2989 Y43.8460
G01 X19.3061 Y43.8966
G01 X19.3100 Y43.9750
G01 X19.3061 Y44.0584
G01 X19.3053 Y44.0657
G01 X19.2937 Y44.1433
G01 X19.2747 Y44.2195
G01 X19.2727 Y44.2266
G01 X19.2471 Y44.2982
G01 X19.2433 Y44.3073
G01 X19.2096 Y44.3782
G01 X19.1694 Y44.4456
G01 X19.1639 Y44.4537
G01 X19.1171 Y44.5167
G01 X19.0610 Y44.5785
G01 X18.9992 Y44.6346
G01 X18.9362 Y44.6814
G01 X18.9281 Y44.6869
G01 X18.8607 Y44.7271
G01 X18.7853 Y44.7628
G01 X18.7114 Y44.7894
G01 X18.7020 Y44.7922
G01 X18.6258 Y44.8112
G01 X18.5482 Y44.8228
G01 X18.5384 Y44.8238
G01 X18.4600 Y44.8275
G01 X18.3767 Y44.8234
G01 X18.2990 Y44.8120
G01 X18.2894 Y44.8101
G01 X18.2133 Y44.7909
G01 X18.1393 Y44.7646
G00 Z5.0000
G00 X20.6793 Y44.7646
G01 F60.00
G01 Z0.0000
G01 F70.00
G01 X20.6702 Y44.7608
G01 X20.5993 Y44.7271
G01 X20.5319 Y44.6869
G01 X20.5238 Y44.6814
G01 X20.4608 Y44.6346
G01 X20.4025 Y44.5819
G01 X20.3956 Y44.5750
G01 X20.3429 Y44.5167
G01 X20.2961 Y44.4537
G01 X20.2906 Y44.4456
G01 X20.2504 Y44.3782
G01 X20.2167 Y44.3073
G01 X20.2129 Y44.2982
G01 X20.1866 Y44.2242
G01 X20.1663 Y44.1433
G01 X20.1541 Y44.0608
G01 X20.1501 Y43.9824
G01 X20.1501 Y43.9726
G01 X20.1541 Y43.8942
G01 X20.1655 Y43.8165
G01 X20.1674 Y43.8069
G01 X20.1866 Y43.7308
G01 X20.2147 Y43.6522
G01 X20.2482 Y43.5812
G01 X20.2528 Y43.5725
G01 X20.2933 Y43.5053
G01 X20.3399 Y43.4421
G01 X20.3461 Y43.4345
G01 X20.3972 Y43.3782
G01 X20.4025 Y43.3731
G01 X20.4608 Y43.3204
G01 X20.5238 Y43.2736
G01 X20.5319 Y43.2681
G01 X20.5993 Y43.2279
G01 X20.6702 Y43.1942
G01 X20.6793 Y43.1904
G01 X20.7509 Y43.1648
G01 X20.7580 Y43.1628
G01 X20.8342 Y43.1438
G01 X20.9118 Y43.1322
G01 X20.9191 Y43.1314
G01 X21.0025 Y43.1275
G01 X21.0809 Y43.1314
G01 X21.1315 Y43.1386
G01 X42.1043 Y22.1658
G01 X42.0505 Y22.1257
G01 X41.9886 Y22.0698
G01 X41.9816 Y22.0628
G01 X41.9289 Y22.0047
G01 X41.9227 Y21.9971
G01 X41.8731 Y21.9300
G01 X41.8301 Y21.8585
G01 X41.8255 Y21.8499
G01 X41.7899 Y21.7744
G01 X41.7602 Y21.6913
G01 X41.7387 Y21.6056
G01 X41.7258 Y21.5182
G01 X41.7214 Y21.4300
G01 X41.7254 Y21.3467
G01 X41.7264 Y21.3369
G01 X41.7387 Y21.2544
G01 X41.7589 Y21.1735
G01 X41.7617 Y21.1641
G01 X41.7882 Y21.0902
G01 X41.7919 Y21.0811
G01 X41.8277 Y21.0057
G01 X41.8731 Y20.9300
G01 X41.9257 Y20.8590
G01 X41.9850 Y20.7936
G01 X42.0505 Y20.7343
G01 X42.1214 Y20.6817
G01 X42.1972 Y20.6363
G01 X42.2770 Y20.5985
G01 X42.3602 Y20.5688
G01 X42.4458 Y20.5473
G01 X42.5332 Y20.5343
G01 X42.6214 Y20.5300
G01 X42.7096 Y20.5343
G01 X42.7970 Y20.5473
G01 X42.8827 Y20.5688
G01 X42.9658 Y20.5985
G01 X43.0457 Y20.6363
G01 X43.1214 Y20.6817
G01 X43.1924 Y20.7343
G01 X43.2561 Y20.7919
G01 X43.2612 Y20.7972
G01 X43.3171 Y20.8590
G01 X43.3669 Y20.9260
G01 X43.3724 Y20.9341
G01 X43.4152 Y21.0057
G01 X43.4509 Y21.0811
G01 X43.4547 Y21.0902
G01 X43.4811 Y21.1641
G01 X43.4840 Y21.1735
G01 X43.5041 Y21.2544
G01 X43.5171 Y21.3418
G01 X43.5214 Y21.4300
G01 X43.5175 Y21.5133
G01 X43.5165 Y21.5231
G01 X43.5041 Y21.6056
G01 X43.4840 Y21.6865
G01 X43.4811 Y21.6959
G01 X43.4547 Y21.7698
G01 X43.4509 Y21.7789
G01 X43.4152 Y21.8543
G01 X43.3724 Y21.9259
G01 X43.3669 Y21.9340
G01 X43.3171 Y22.0010
G01 X43.2578 Y22.0664
G01 X43.1924 Y22.1257
G01 X43.1216 Y22.1782
G01 X43.1216 Y22.3561
G01 X43.1194 Y22.4027
G01 X43.1120 Y22.4537
G01 X43.1008 Y22.4989
G01 X43.0835 Y22.5475
G01 X43.0648 Y22.5875
G01 X43.0601 Y22.5961
G01 X43.0373 Y22.6340
G01 X43.0111 Y22.6695
G01 X43.0049 Y22.6771
G01 X42.9768 Y22.7080
G01 X21.8389 Y43.8460
G01 X21.8461 Y43.8966
G01 X21.8500 Y43.9750
G01 X21.8461 Y44.0584
G01 X21.8453 Y44.0657
G01 X21.8337 Y44.1433
G01 X21.8147 Y44.2195
G01 X21.8127 Y44.2266
G01 X21.7871 Y44.2982
G01 X21.7833 Y44.3073
G01 X21.7496 Y44.3782
G01 X21.7094 Y44.4456
G01 X21.7039 Y44.4537
G01 X21.6571 Y44.5167
G01 X21.6010 Y44.5785
G01 X21.5392 Y44.6346
G01 X21.4762 Y44.6814
G01 X21.4681 Y44.6869
G01 X21.4007 Y44.7271
G01 X21.3253 Y44.7628
G01 X21.2514 Y44.7894
G01 X21.2420 Y44.7922
G01 X21.1658 Y44.8112
G01 X21.0882 Y44.8228
G01 X21.0784 Y44.8238
G01 X21.0000 Y44.8275
G01 X20.9167 Y44.8234
G01 X20.8390 Y44.8120
G01 X20.8294 Y44.8101
G01 X20.7533 Y44.7909
G01 X20.6793 Y44.7646
G00 Z5.0000
G00 X23.2193 Y44.7646
G01 F60.00
G01 Z0.0000
G01 F70.00
G01 X23.2102 Y44.7608
G01 X23.1393 Y44.7271
G01 X23.0719 Y44.6869
G01 X23.0638 Y44.6814
G01 X23.0008 Y44.6346
G01 X22.9425 Y44.5819
G01 X22.9356 Y44.5750
G01 X22.8829 Y44.5167
G01 X22.8361 Y44.4537
G01 X22.8306 Y44.4456
G01 X22.7904 Y44.3782
G01 X22.7567 Y44.3073
G01 X22.7529 Y44.2982
G01 X22.7266 Y44.2242
G01 X22.7063 Y44.1433
G01 X22.6941 Y44.0608
G01 X22.6901 Y43.9824
G01 X22.6901 Y43.9726
G01 X22.6941 Y43.8942
G01 X22.7055 Y43.8165
G01 X22.7074 Y43.8069
G01 X22.7266 Y43.7308
G01 X22.7547 Y43.6522
G01 X22.7882 Y43.5812
G01 X22.7928 Y43.5725
G01 X22.8333 Y43.5053
G01 X22.8799 Y43.4421
G01 X22.8861 Y43.4345
G01 X22.9372 Y43.3782
G01 X22.9425 Y43.3731
G01 X23.0008 Y43.3204
G01 X23.0638 Y43.2736
G01 X23.0719 Y43.2681
G01 X23.1393 Y43.2279
G01 X23.2102 Y43.1942
G01 X23.2193 Y43.1904
G01 X23.2909 Y43.1648
G01 X23.2980 Y43.1628
G01 X23.3742 Y43.1438
G01 X23.4518 Y43.1322
G01 X23.4591 Y43.1314
G01 X23.5425 Y43.1275
G01 X23.6209 Y43.1314
G01 X23.6715 Y43.1386
G01 X44.9158 Y21.8943
G01 X44.8909 Y21.8521
G01 X44.8562 Y21.7789
G01 X44.8533 Y21.7721
G01 X44.8245 Y21.6913
G01 X44.8035 Y21.6080
G01 X44.7906 Y21.5231
G01 X44.7897 Y21.5133
G01 X44.7857 Y21.4300
G01 X44.7897 Y21.3467
G01 X44.7903 Y21.3393
G01 X44.8030 Y21.2544
G01 X44.8245 Y21.1687
G01 X44.8542 Y21.0856
G01 X44.8898 Y21.0101
G01 X44.8944 Y21.0015
G01 X44.9348 Y20.9341
G01 X44.9402 Y20.9260
G01 X44.9900 Y20.8590
G01 X45.0459 Y20.7972
G01 X45.0511 Y20.7919
G01 X45.1148 Y20.7343
G01 X45.1857 Y20.6817
G01 X45.2615 Y20.6363
G01 X45.3413 Y20.5985
G01 X45.4245 Y20.5688
G01 X45.5101 Y20.5473
G01 X45.5975 Y20.5343
G01 X45.6857 Y20.5300
G01 X45.7739 Y20.5343
G01 X45.8613 Y20.5473
G01 X45.9470 Y20.5688
G01 X46.0301 Y20.5985
G01 X46.1100 Y20.6363
G01 X46.1857 Y20.6817
G01 X46.2567 Y20.7343
G01 X46.3203 Y20.7919
G01 X46.3255 Y20.7972
G01 X46.3814 Y20.8590
G01 X46.4340 Y20.9300
G01 X46.4794 Y21.0057
G01 X46.5172 Y21.0856
G01 X46.5470 Y21.1687
G01 X46.5684 Y21.2544
G01 X46.5814 Y21.3418
G01 X46.5857 Y21.4300
G01 X46.5814 Y21.5182
G01 X46.5684 Y21.6056
G01 X46.5470 Y21.6913
G01 X46.5172 Y21.7744
G01 X46.4794 Y21.8543
G01 X46.4340 Y21.9300
G01 X46.3814 Y22.0010
G01 X46.3238 Y22.0646
G01 X46.2604 Y22.1225
G01 X46.2528 Y22.1287
G01 X46.1857 Y22.1783
G01 X46.1142 Y22.2213
G01 X46.1056 Y22.2259
G01 X46.0301 Y22.2615
G01 X45.9493 Y22.2905
G01 X45.9290 Y22.2959
G01 X24.3789 Y43.8460
G01 X24.3861 Y43.8966
G01 X24.3900 Y43.9750
G01 X24.3861 Y44.0584
G01 X24.3853 Y44.0657
G01 X24.3737 Y44.1433
G01 X24.3547 Y44.2195
G01 X24.3527 Y44.2266
G01 X24.3271 Y44.2982
G01 X24.3233 Y44.3073
G01 X24.2896 Y44.3782
G01 X24.2494 Y44.4456
G01 X24.2439 Y44.4537
G01 X24.1971 Y44.5167
G01 X24.1410 Y44.5785
G01 X24.0792 Y44.6346
G01 X24.0162 Y44.6814
G01 X24.0081 Y44.6869
G01 X23.9407 Y44.7271
G01 X23.8653 Y44.7628
G01 X23.7914 Y44.7894
G01 X23.7820 Y44.7922
G01 X23.7058 Y44.8112
G01 X23.6282 Y44.8228
G01 X23.6184 Y44.8238
G01 X23.5400 Y44.8275
G01 X23.4567 Y44.8234
G01 X23.3790 Y44.8120
G01 X23.3694 Y44.8101
G01 X23.2933 Y44.7909
G01 X23.2193 Y44.7646
G00 Z5.0000
G00 X25.7593 Y44.7646
G01 F60.00
G01 Z0.0000
G01 F70.00
G01 X25.7502 Y44.7608
G01 X25.6793 Y44.7271
G01 X25.6119 Y44.6869
G01 X25.6038 Y44.6814
G01 X25.5408 Y44.6346
G01 X25.4825 Y44.5819
G01 X25.4756 Y44.5750
G01 X25.4229 Y44.5167
G01 X25.3761 Y44.4537
G01 X25.3706 Y44.4456
G01 X25.3304 Y44.3782
G01 X25.2967 Y44.3073
G01 X25.2929 Y44.2982
G01 X25.2666 Y44.2242
G01 X25.2463 Y44.1433
G01 X25.2341 Y44.0608
G01 X25.2301 Y43.9824
G01 X25.2301 Y43.9726
G01 X25.2341 Y43.8942
G01 X25.2455 Y43.8165
G01 X25.2474 Y43.8069
G01 X25.2666 Y43.7308
G01 X25.2947 Y43.6522
G01 X25.3282 Y43.5812
G01 X25.3328 Y43.5725
G01 X25.3733 Y43.5053
G01 X25.4199 Y43.4421
G01 X25.4261 Y43.4345
G01 X25.4790 Y43.3765
G01 X25.5408 Y43.3204
G01 X25.6038 Y43.2736
G01 X25.6119 Y43.2681
G01 X25.6793 Y43.2279
G01 X25.7502 Y43.1942
G01 X25.7593 Y43.1904
G01 X25.8309 Y43.1648
G01 X25.8380 Y43.1628
G01 X25.9142 Y43.1438
G01 X25.9918 Y43.1322
G01 X25.9991 Y43.1314
G01 X26.0825 Y43.1275
G01 X26.1609 Y43.1314
G01 X26.2115 Y43.1386
G01 X47.8532 Y21.4969
G01 X47.8500 Y21.4300
G01 X47.8540 Y21.3467
G01 X47.8549 Y21.3369
G01 X47.8665 Y21.2593
G01 X47.8684 Y21.2496
G01 X47.8888 Y21.1687
G01 X47.9176 Y21.0879
G01 X47.9205 Y21.0811
G01 X47.9563 Y21.0057
G01 X48.0017 Y20.9300
G01 X48.0543 Y20.8590
G01 X48.1102 Y20.7972
G01 X48.1154 Y20.7919
G01 X48.1790 Y20.7343
G01 X48.2500 Y20.6817
G01 X48.3257 Y20.6363
G01 X48.4056 Y20.5985
G01 X48.4887 Y20.5688
G01 X48.5744 Y20.5473
G01 X48.6618 Y20.5343
G01 X48.7500 Y20.5300
G01 X48.8382 Y20.5343
G01 X48.9256 Y20.5473
G01 X49.0113 Y20.5688
G01 X49.0944 Y20.5985
G01 X49.1743 Y20.6363
G01 X49.2500 Y20.6817
G01 X49.3210 Y20.7343
G01 X49.3864 Y20.7936
G01 X49.4457 Y20.8590
G01 X49.4983 Y20.9300
G01 X49.5437 Y21.0057
G01 X49.5815 Y21.0856
G01 X49.6112 Y21.1687
G01 X49.6327 Y21.2544
G01 X49.6457 Y21.3418
G01 X49.6500 Y21.4300
G01 X49.6457 Y21.5182
G01 X49.6327 Y21.6056
G01 X49.6112 Y21.6913
G01 X49.5815 Y21.7744
G01 X49.5437 Y21.8543
G01 X49.4983 Y21.9300
G01 X49.4457 Y22.0010
G01 X49.3864 Y22.0664
G01 X49.3210 Y22.1257
G01 X49.2540 Y22.1755
G01 X49.2459 Y22.1809
G01 X49.1743 Y22.2237
G01 X49.0989 Y22.2595
G01 X49.0898 Y22.2633
G01 X49.0113 Y22.2912
G01 X48.9304 Y22.3116
G01 X48.9207 Y22.3135
G01 X48.8431 Y22.3251
G01 X48.8333 Y22.3260
G01 X48.7500 Y22.3300
G01 X48.6667 Y22.3260
G01 X48.6569 Y22.3251
G01 X48.5744 Y22.3127
G01 X48.4935 Y22.2926
G01 X48.4775 Y22.2874
G01 X26.9189 Y43.8460
G01 X26.9261 Y43.8966
G01 X26.9300 Y43.9750
G01 X26.9261 Y44.0584
G01 X26.9253 Y44.0657
G01 X26.9137 Y44.1433
G01 X26.8947 Y44.2195
G01 X26.8927 Y44.2266
G01 X26.8671 Y44.2982
G01 X26.8633 Y44.3073
G01 X26.8296 Y44.3782
G01 X26.7894 Y44.4456
G01 X26.7839 Y44.4537
G01 X26.7371 Y44.5167
G01 X26.6844 Y44.5750
G01 X26.6793 Y44.5803
G01 X26.6192 Y44.6346
G01 X26.5562 Y44.6814
G01 X26.5481 Y44.6869
G01 X26.4807 Y44.7271
G01 X26.4053 Y44.7628
G01 X26.3314 Y44.7894
G01 X26.3220 Y44.7922
G01 X26.2458 Y44.8112
G01 X26.1682 Y44.8228
G01 X26.1584 Y44.8238
G01 X26.0800 Y44.8275
G01 X25.9967 Y44.8234
G01 X25.9190 Y44.8120
G01 X25.9094 Y44.8101
G01 X25.8333 Y44.7909
G01 X25.7593 Y44.7646
G00 Z5.0000
G00 X28.1198 Y28.0513
G01 F60.00
G01 Z0.0000
G01 F70.00
G01 X28.1198 Y26.2386
G01 X28.1218 Y26.1944
G01 X28.1228 Y26.1847
G01 X28.1286 Y26.1458
G01 X28.1305 Y26.1362
G01 X28.1413 Y26.0934
G01 X28.1579 Y26.0472
G01 X28.1767 Y26.0072
G01 X28.1813 Y25.9985
G01 X28.2041 Y25.9607
G01 X28.2333 Y25.9212
G01 X28.2663 Y25.8849
G01 X32.5458 Y21.6054
G01 X32.5335 Y21.5231
G01 X32.5325 Y21.5133
G01 X32.5286 Y21.4300
G01 X32.5325 Y21.3467
G01 X32.5335 Y21.3369
G01 X32.5459 Y21.2544
G01 X32.5660 Y21.1735
G01 X32.5689 Y21.1641
G01 X32.5971 Y21.0856
G01 X32.6326 Y21.0101
G01 X32.6373 Y21.0015
G01 X32.6802 Y20.9300
G01 X32.7298 Y20.8629
G01 X32.7361 Y20.8553
G01 X32.7922 Y20.7936
G01 X32.8539 Y20.7375
G01 X32.8615 Y20.7313
G01 X32.9245 Y20.6845
G01 X32.9327 Y20.6791
G01 X33.0043 Y20.6363
G01 X33.0797 Y20.6005
G01 X33.0887 Y20.5967
G01 X33.1673 Y20.5688
G01 X33.2530 Y20.5473
G01 X33.3404 Y20.5343
G01 X33.4286 Y20.5300
G01 X33.5168 Y20.5343
G01 X33.6042 Y20.5473
G01 X33.6898 Y20.5688
G01 X33.7684 Y20.5967
G01 X33.7775 Y20.6005
G01 X33.8484 Y20.6341
G01 X33.8571 Y20.6387
G01 X33.9286 Y20.6817
G01 X33.9995 Y20.7343
G01 X34.0650 Y20.7936
G01 X34.1243 Y20.8590
G01 X34.1769 Y20.9300
G01 X34.2223 Y21.0057
G01 X34.2601 Y21.0856
G01 X34.2898 Y21.1687
G01 X34.3113 Y21.2544
G01 X34.3242 Y21.3418
G01 X34.3286 Y21.4300
G01 X34.3242 Y21.5182
G01 X34.3113 Y21.6056
G01 X34.2898 Y21.6913
G01 X34.2601 Y21.7744
G01 X34.2223 Y21.8543
G01 X34.1769 Y21.9300
G01 X34.1273 Y21.9971
G01 X34.1227 Y22.0028
G01 X34.0650 Y22.0664
G01 X34.0032 Y22.1225
G01 X33.9957 Y22.1287
G01 X33.9286 Y22.1783
G01 X33.8571 Y22.2213
G01 X33.8484 Y22.2259
G01 X33.7730 Y22.2615
G01 X33.6945 Y22.2897
G01 X33.6851 Y22.2926
G01 X33.6042 Y22.3127
G01 X33.5217 Y22.3251
G01 X33.5119 Y22.3260
G01 X33.4286 Y22.3300
G01 X33.3452 Y22.3260
G01 X33.3355 Y22.3251
G01 X33.2532 Y22.3127
G01 X29.1202 Y26.4458
G01 X29.1202 Y28.0513
G01 X29.1611 Y28.0820
G01 X29.2193 Y28.1347
G01 X29.2755 Y28.1964
G01 X29.2801 Y28.2021
G01 X29.3267 Y28.2653
G01 X29.3672 Y28.3325
G01 X29.3708 Y28.3390
G01 X29.4033 Y28.4077
G01 X29.4071 Y28.4168
G01 X29.4334 Y28.4908
G01 X29.4526 Y28.5669
G01 X29.4545 Y28.5765
G01 X29.4659 Y28.6542
G01 X29.4700 Y28.7375
G01 X29.4663 Y28.8159
G01 X29.4653 Y28.8257
G01 X29.4537 Y28.9033
G01 X29.4347 Y28.9795
G01 X29.4319 Y28.9889
G01 X29.4053 Y29.0628
G01 X29.3696 Y29.1382
G01 X29.3267 Y29.2097
G01 X29.2801 Y29.2729
G01 X29.2739 Y29.2805
G01 X29.2210 Y29.3385
G01 X29.1630 Y29.3914
G01 X29.1554 Y29.3976
G01 X29.0943 Y29.4429
G01 X29.0881 Y29.4469
G01 X29.0207 Y29.4871
G01 X28.9453 Y29.5228
G01 X28.8667 Y29.5509
G01 X28.7858 Y29.5712
G01 X28.7033 Y29.5834
G01 X28.6200 Y29.5875
G01 X28.5367 Y29.5834
G01 X28.4542 Y29.5712
G01 X28.3733 Y29.5509
G01 X28.2947 Y29.5228
G01 X28.2193 Y29.4871
G01 X28.1478 Y29.4442
G01 X28.0808 Y29.3946
G01 X28.0190 Y29.3385
G01 X27.9629 Y29.2767
G01 X27.9146 Y29.2118
G01 X27.9106 Y29.2056
G01 X27.8704 Y29.1382
G01 X27.8347 Y29.0628
G01 X27.8066 Y28.9842
G01 X27.7863 Y28.9033
G01 X27.7741 Y28.8208
G01 X27.7700 Y28.7375
G01 X27.7741 Y28.6542
G01 X27.7859 Y28.5741
G01 X27.7874 Y28.5669
G01 X27.8066 Y28.4908
G01 X27.8347 Y28.4122
G01 X27.8704 Y28.3368
G01 X27.9119 Y28.2673
G01 X27.9161 Y28.2613
G01 X27.9629 Y28.1983
G01 X28.0172 Y28.1382
G01 X28.0789 Y28.0820
G01 X28.1198 Y28.0513
G00 Z5.0000
G00 X4.1500 Y9.9500
G01 F60.00
G01 Z0.0000
G01 F70.00
G01 X4.1402 Y9.9495
G01 X4.1305 Y9.9481
G01 X4.1210 Y9.9457
G01 X4.1117 Y9.9424
G01 X4.1050 Y9.9393
G01 X4.0965 Y9.9345
G01 X4.0885 Y9.9288
G01 X4.0810 Y9.9224
G01 X4.0743 Y9.9153
G01 X4.0682 Y9.9076
G01 X4.0630 Y9.8993
G01 X4.0586 Y9.8905
G01 X4.0558 Y9.8837
G01 X4.0530 Y9.8743
G01 X4.0511 Y9.8647
G01 X4.0501 Y9.8549
G01 X4.0500 Y8.1475
G01 X4.0508 Y8.1378
G01 X4.0524 Y8.1281
G01 X4.0550 Y8.1186
G01 X4.0576 Y8.1117
G01 X4.0618 Y8.1029
G01 X4.0655 Y8.0965
G01 X4.0712 Y8.0885
G01 X4.0776 Y8.0810
G01 X4.0847 Y8.0743
G01 X4.0924 Y8.0682
G01 X4.1007 Y8.0630
G01 X4.1095 Y8.0586
G01 X4.1186 Y8.0550
G01 X4.1305 Y8.0519
G01 X4.1402 Y8.0505
G01 X4.1500 Y8.0500
G01 X5.8525 Y8.0500
G01 X5.8622 Y8.0508
G01 X5.8719 Y8.0524
G01 X5.8814 Y8.0550
G01 X5.8883 Y8.0576
G01 X5.8971 Y8.0618
G01 X5.9056 Y8.0669
G01 X5.9134 Y8.0727
G01 X5.9190 Y8.0776
G01 X5.9257 Y8.0847
G01 X5.9318 Y8.0924
G01 X5.9370 Y8.1007
G01 X5.9414 Y8.1095
G01 X5.9450 Y8.1186
G01 X5.9476 Y8.1281
G01 X5.9495 Y8.1402
G01 X5.9500 Y8.1500
G01 X5.9500 Y9.8525
G01 X5.9492 Y9.8622
G01 X5.9476 Y9.8719
G01 X5.9457 Y9.8790
G01 X5.9424 Y9.8883
G01 X5.9382 Y9.8971
G01 X5.9331 Y9.9056
G01 X5.9288 Y9.9115
G01 X5.9224 Y9.9190
G01 X5.9153 Y9.9257
G01 X5.9076 Y9.9318
G01 X5.8993 Y9.9370
G01 X5.8905 Y9.9414
G01 X5.8814 Y9.9450
G01 X5.8719 Y9.9476
G01 X5.8622 Y9.9492
G01 X5.8525 Y9.9500
G01 X4.1500 Y9.9500
G00 Z5.0000
M05
G00 Z5.0000
G00 Z15.00


