(G-CODE GENERATED BY FLATCAM v8.994 - www.flatcam.org - Version Date: 2020/11/7)

(Name: DIAPLAY  7 SEG x 4-PTH.drl_cnc)
(Type: G-code from Geometry)
(Units: MM)

(Created on Monday, 26 June 2023 at 16:19)

(This preprocessor is the default preprocessor used by FlatCAM.)
(It is made to work with MACH3 compatible motion controllers.)


(TOOLS DIAMETER: )
(Tool: 1 -> Dia: 0.8)
(Tool: 2 -> Dia: 1.0)

(FEEDRATE Z: )
(Tool: 1 -> Feedrate: 60.0)
(Tool: 2 -> Feedrate: 60.0)

(FEEDRATE RAPIDS: )
(Tool: 1 -> Feedrate Rapids: 1500)
(Tool: 2 -> Feedrate Rapids: 1500)

(Z_CUT: )
(Tool: 1 -> Z_Cut: -2.7000000000000006)
(Tool: 2 -> Z_Cut: -2.7000000000000006)

(Tools Offset: )
(Tool: 1 -> Offset Z: 0.0)
(Tool: 2 -> Offset Z: 0.0)

(Z_MOVE: )
(Tool: 1 -> Z_Move: 4.999999999999998)
(Tool: 2 -> Z_Move: 4.999999999999998)

(Z Toolchange: 15 mm)
(X,Y Toolchange: 0.0000, 0.0000 mm)
(Z Start: None mm)
(Z End: 0.5 mm)
(X,Y End: None mm)
(Steps per circle: 64)
(Preprocessor Excellon: default)

(X range:    4.5000 ...   49.1500  mm)
(Y range:    5.9600 ...   44.4770  mm)

(Spindle Speed: 6000 RPM)
G21
G90
G94

G01 F60.00

M5
G00 Z15.0000
T1
G00 X0.0000 Y0.0000                
M6
(MSG, Change to Tool Dia = 0.8000 ||| Total drills for tool T1 = 52)
M0
G00 Z15.0000

G01 F60.00
M03 S6000
G00 X27.3000 Y13.8100
G01 Z-17.7000
G01 Z0
G00 Z5.0000
G00 X30.3640 Y13.8100
G01 Z-17.7000
G01 Z0
G00 Z5.0000
G00 X33.4290 Y13.8100
G01 Z-17.7000
G01 Z0
G00 Z5.0000
G00 X36.4930 Y13.8100
G01 Z-17.7000
G01 Z0
G00 Z5.0000
G00 X39.5570 Y13.8100
G01 Z-17.7000
G01 Z0
G00 Z5.0000
G00 X42.6210 Y13.8100
G01 Z-17.7000
G01 Z0
G00 Z5.0000
G00 X45.6860 Y13.8100
G01 Z-17.7000
G01 Z0
G00 Z5.0000
G00 X48.7500 Y13.8100
G01 Z-17.7000
G01 Z0
G00 Z5.0000
G00 X48.7500 Y21.4300
G01 Z-17.7000
G01 Z0
G00 Z5.0000
G00 X45.6860 Y21.4300
G01 Z-17.7000
G01 Z0
G00 Z5.0000
G00 X42.6210 Y21.4300
G01 Z-17.7000
G01 Z0
G00 Z5.0000
G00 X39.5570 Y21.4300
G01 Z-17.7000
G01 Z0
G00 Z5.0000
G00 X36.4930 Y21.4300
G01 Z-17.7000
G01 Z0
G00 Z5.0000
G00 X33.4290 Y21.4300
G01 Z-17.7000
G01 Z0
G00 Z5.0000
G00 X30.3640 Y21.4300
G01 Z-17.7000
G01 Z0
G00 Z5.0000
G00 X27.3000 Y21.4300
G01 Z-17.7000
G01 Z0
G00 Z5.0000
G00 X28.6200 Y28.7370
G01 Z-17.7000
G01 Z0
G00 Z5.0000
G00 X26.0800 Y28.7370
G01 Z-17.7000
G01 Z0
G00 Z5.0000
G00 X23.5400 Y28.7370
G01 Z-17.7000
G01 Z0
G00 Z5.0000
G00 X21.0000 Y28.7370
G01 Z-17.7000
G01 Z0
G00 Z5.0000
G00 X28.6200 Y43.9770
G01 Z-17.7000
G01 Z0
G00 Z5.0000
G00 X26.0800 Y43.9770
G01 Z-17.7000
G01 Z0
G00 Z5.0000
G00 X23.5400 Y43.9770
G01 Z-17.7000
G01 Z0
G00 Z5.0000
G00 X21.0000 Y43.9770
G01 Z-17.7000
G01 Z0
G00 Z5.0000
G00 X18.4600 Y43.9770
G01 Z-17.7000
G01 Z0
G00 Z5.0000
G00 X15.9200 Y43.9770
G01 Z-17.7000
G01 Z0
G00 Z5.0000
G00 X18.4600 Y28.7370
G01 Z-17.7000
G01 Z0
G00 Z5.0000
G00 X15.9200 Y28.7370
G01 Z-17.7000
G01 Z0
G00 Z5.0000
G00 X7.5400 Y9.0000
G01 Z-17.7000
G01 Z0
G00 Z5.0000
G00 X5.0000 Y9.0000
G01 Z-17.7000
G01 Z0
G00 Z5.0000
G00 X5.0000 Y6.4600
G01 Z-17.7000
G01 Z0
G00 Z5.0000
G00 X7.5400 Y6.4600
G01 Z-17.7000
G01 Z0
G00 Z5.0000
G00 X10.0800 Y6.4600
G01 Z-17.7000
G01 Z0
G00 Z5.0000
G00 X10.0800 Y9.0000
G01 Z-17.7000
G01 Z0
G00 Z5.0000
G00 X12.6200 Y9.0000
G01 Z-17.7000
G01 Z0
G00 Z5.0000
G00 X12.6200 Y6.4600
G01 Z-17.7000
G01 Z0
G00 Z5.0000
G00 X15.1600 Y6.4600
G01 Z-17.7000
G01 Z0
G00 Z5.0000
G00 X15.1600 Y9.0000
G01 Z-17.7000
G01 Z0
G00 Z5.0000
G00 X17.7000 Y9.0000
G01 Z-17.7000
G01 Z0
G00 Z5.0000
G00 X17.7000 Y6.4600
G01 Z-17.7000
G01 Z0
G00 Z5.0000
G00 X25.6900 Y6.4600
G01 Z-17.7000
G01 Z0
G00 Z5.0000
G00 X28.2300 Y6.4600
G01 Z-17.7000
G01 Z0
G00 Z5.0000
G00 X30.7700 Y6.4600
G01 Z-17.7000
G01 Z0
G00 Z5.0000
G00 X33.3100 Y6.4600
G01 Z-17.7000
G01 Z0
G00 Z5.0000
G00 X35.8500 Y6.4600
G01 Z-17.7000
G01 Z0
G00 Z5.0000
G00 X38.3900 Y6.4600
G01 Z-17.7000
G01 Z0
G00 Z5.0000
G00 X38.3900 Y9.0000
G01 Z-17.7000
G01 Z0
G00 Z5.0000
G00 X35.8500 Y9.0000
G01 Z-17.7000
G01 Z0
G00 Z5.0000
G00 X33.3100 Y9.0000
G01 Z-17.7000
G01 Z0
G00 Z5.0000
G00 X30.7700 Y9.0000
G01 Z-17.7000
G01 Z0
G00 Z5.0000
G00 X28.2300 Y9.0000
G01 Z-17.7000
G01 Z0
G00 Z5.0000
G00 X25.6900 Y9.0000
G01 Z-17.7000
G01 Z0
G00 Z5.0000
M05
G00 Z0.50


